!!!!SEGMENT: pl-cz--iii-114--005_dankowski-adalbert--vesperae-d-laudate-pueri.krn
!!!cenid: 18xx:810
!!!COM: Dankowski, Adalbert
!!!COM-rismID: pe30000793
!!!CDT: ~1760-~1836
!!!CNT: Polish
!!!OPR: Vesperae D
!!!OTL: Laudate pueri
!!!OMV: 005
!!!PDT:
!!!AGN: Sacred; Vespers
!!!SMS-siglum: PL-CZ
!!!SMS-shelfmark: III-114
!!!SMS-shelfwork: 001-005 M
!!!SMS-variant:
!!!SMS-altvar:
!!!NIFC-rismSourceID: 300000113
!!!NIFC-rismChildID: 300000113
!!!NIFC-islandoraID: pl-cz:34509
!!!URL-pdf-islandora: https://repozytorium.nifc.pl/islandora/object/pl-cz%3A34509/datastream/PDF/view
!!!URL-scan:
!!!ONB-nifc: UWAGA: części Vesperae: Dixit Dominus, Juravit Dominus, Judicabit, Gloria, Laudate pueri, Laetatus sum, Nisi Dominus, Lauda Jerusalem, Magnificat, Et misericordia, Gloria. Uwaga: brak partii vl 1, fl 1 i 2
!!!AIN: 1 alto 1 bass 2 cor 2 flt 1 organ 1 soprn 1 tenor 2 violn
!!!key:
**kern	**fba	**dynam	**kern	**dynam	**kern	**kern	**text	**kern	**text	**kern	**text	**kern	**text	**kern	**dynam	**kern	**dynam	**kern	**kern
*	*	*	*group4	*	*group4	*group3	*	*group3	*	*group3	*	*group3	*	*group2	*	*group2	*	*group1	*group1
*part11	*	*	*part10	*part10	*part9	*part8	*part8	*part7	*part7	*part6	*part6	*part5	*part5	*part4	*	*part3	*	*part2	*part1
*staff11	*	*	*staff10	*	*staff9	*staff8	*staff8	*staff7	*staff7	*staff6	*staff6	*staff5	*staff5	*staff4	*	*staff3	*	*staff2	*staff1
*I"Organo.	*	*	*I"Violino Secondo	*	*I"[Violino Primo]	*I"Baſso	*	*I"Tenore	*	*I"Alto	*	*I"Canto	*	*I"Cornu Secondo Ex D:	*	*I"Cornu Primo Ex D:	*	*I"[Flauto Secondo]	*I"[Flauto Primo]
*I'org	*	*	*I'vl 2	*	*I'[vl 1]	*I'B	*	*I'T	*	*I'A	*	*I'C	*	*I'cor 2	*	*I'cor 1	*	*I'[fl 2]	*I'[fl 1]
*Iorgan	*	*	*Ivioln	*	*Ivioln	*Ibass	*	*Itenor	*	*Ialto	*	*Isoprn	*	*Icor	*	*Icor	*	*Iflt	*Iflt
*ICklav	*	*	*ICstr	*	*ICstr	*ICvox	*	*ICvox	*	*ICvox	*	*ICvox	*	*ICbras	*	*ICbras	*	*ICww	*ICww
*IGcont	*	*	*	*	*	*IGcoro	*	*IGcoro	*	*IGcoro	*	*IGcoro	*	*	*	*	*	*	*
*clefF4	*	*	*clefG2	*	*clefG2	*clefF4	*	*clefC4	*	*clefC3	*	*clefC1	*	*clefG2	*	*clefG2	*	*clefG2	*clefG2
*	*	*	*	*	*	*	*	*	*	*	*	*	*	*ITrd3c5	*	*ITrd3c5	*	*	*
*k[f#]	*	*	*k[f#]	*	*k[f#]	*k[f#]	*	*k[f#]	*	*k[f#]	*	*k[f#]	*	*k[f#]	*	*k[f#]	*	*k[f#]	*k[f#]
*G:	*	*	*G:	*	*	*G:	*	*G:	*	*G:	*	*G:	*	*	*	*	*	*	*
*M2/4	*	*	*M2/4	*	*M2/4	*M2/4	*	*M2/4	*	*M2/4	*	*M2/4	*	*M2/4	*	*M2/4	*	*M2/4	*M2/4
=1	=1	=1	=1	=1	=1	=1	=1	=1	=1	=1	=1	=1	=1	=1	=1	=1	=1	=1	=1
!LO:TX:t=P:problem=mixed beam	!	!	!LO:TX:b:i:t=Laudate pueri	!	!	!	!	!LO:TX:b:t=Laudate pueri	!	!LO:TX:b:i:t=Laudate pueri	!	!LO:TX:b:t=Laudate	!	!LO:TX:a:i:t=Ex G&colon;	!	!LO:TX:b:i:t=Laudate pueri	!	!	!
!LO:TX:a:i:t=allo moder	!	!	!LO:TX:a:i:t=allo moder.	!	!	!	!	!LO:TX:a:i:t=allo moderatto	!	!LO:TX:a:i:t=allo moder	!	!LO:TX:a:i:t=allo moder&colon;	!	!LO:TX:b:i:t=Laudate pueri	!	!LO:TX:a:i:t=Ex G	!	!	!
!LO:TX:b:i:t=Laudate pueri	!	!	!	!	!	!LO:TX:a:i:t=allo moder&colon;	!	!	!	!	!	!	!	!	!	!	!	!	!
8G\L	.	.	8g/L	.	2ryy	0r	.	0r	.	0r	.	0r	.	0r	.	0r	.	2ryy	2ryy
!LO:TX:a:i:t=Solo.	!	!	!	!	!	!	!	!	!	!	!	!	!	!	!	!	!	!	!
8GG'/	.	.	8G/	.	.	.	.	.	.	.	.	.	.	.	.	.	.	.	.
!	!	!	!	!LO:DY:a	!	!	!	!	!	!	!	!	!	!	!	!	!	!	!
8BB'/	.	.	8B/	f	.	.	.	.	.	.	.	.	.	.	.	.	.	.	.
8D'/J	.	.	8d/J	.	.	.	.	.	.	.	.	.	.	.	.	.	.	.	.
=2	=2	=2	=2	=2	=2	=2	=2	=2	=2	=2	=2	=2	=2	=2	=2	=2	=2	=2	=2
(8.G'\L	.	.	8.g/L	.	2ryy	.	.	.	.	.	.	.	.	.	.	.	.	2ryy	2ryy
32B\LL)	.	.	32b/LL	.	.	.	.	.	.	.	.	.	.	.	.	.	.	.	.
32A\JJJ	.	.	32a/JJJ	.	.	.	.	.	.	.	.	.	.	.	.	.	.	.	.
8G'\L	.	.	8g/L	.	.	.	.	.	.	.	.	.	.	.	.	.	.	.	.
8B'\J	.	.	8b/J	.	.	.	.	.	.	.	.	.	.	.	.	.	.	.	.
=3	=3	=3	=3	=3	=3	=3	=3	=3	=3	=3	=3	=3	=3	=3	=3	=3	=3	=3	=3
8.c'\L	.	.	8.cc\L	.	2ryy	.	.	.	.	.	.	.	.	.	.	.	.	2ryy	2ryy
16B'\Jk	.	.	16b\Jk	.	.	.	.	.	.	.	.	.	.	.	.	.	.	.	.
16A'\LL	.	.	16a\LL	.	.	.	.	.	.	.	.	.	.	.	.	.	.	.	.
16B'\	.	.	16b\	.	.	.	.	.	.	.	.	.	.	.	.	.	.	.	.
16c'\	.	.	16cc\	.	.	.	.	.	.	.	.	.	.	.	.	.	.	.	.
16d'\JJ	.	.	16dd\JJ	.	.	.	.	.	.	.	.	.	.	.	.	.	.	.	.
=4	=4	=4	=4	=4	=4	=4	=4	=4	=4	=4	=4	=4	=4	=4	=4	=4	=4	=4	=4
8.B\L	.	.	8.b/L	.	2ryy	.	.	.	.	.	.	.	.	.	.	.	.	2ryy	2ryy
16A\K	.	.	16a/K	.	.	.	.	.	.	.	.	.	.	.	.	.	.	.	.
8G\J	.	.	8g/J	.	.	.	.	.	.	.	.	.	.	.	.	.	.	.	.
8r	.	.	8r	.	.	.	.	.	.	.	.	.	.	.	.	.	.	.	.
=5	=5	=5	=5	=5	=5	=5	=5	=5	=5	=5	=5	=5	=5	=5	=5	=5	=5	=5	=5
!	!	!LO:DY:a	!	!LO:DY:a	!	!	!	!	!	!	!	!	!	!LO:TX:a:i:t=moderatto	!	!LO:TX:a:i:t=Moder	!	!	!
4GG/	.	p	8.g/L	p	2ryy	0r	.	0r	.	0r	.	0r	.	8.g\L	.	8.b\L	.	2ryy	2ryy
.	.	.	16a/K	.	.	.	.	.	.	.	.	.	.	16a\K	.	16cc\K	.	.	.
8r	.	.	8g/	.	.	.	.	.	.	.	.	.	.	8g\	.	8b\	.	.	.
8G\	.	.	8g/J	.	.	.	.	.	.	.	.	.	.	8g\J	.	8b\J	.	.	.
=6	=6	=6	=6	=6	=6	=6	=6	=6	=6	=6	=6	=6	=6	=6	=6	=6	=6	=6	=6
8D\L	4_	.	8.g/L	.	2ryy	.	.	.	.	.	.	.	.	4g\	.	4b\	.	2ryy	2ryy
16D\L	.	.	.	.	.	.	.	.	.	.	.	.	.	.	.	.	.	.	.
16C\JJ	3	.	32f#/LL	.	.	.	.	.	.	.	.	.	.	.	.	.	.	.	.
.	.	.	32g/JJJ	.	.	.	.	.	.	.	.	.	.	.	.	.	.	.	.
8D\L	.	.	8f#/	.	.	.	.	.	.	.	.	.	.	8d/	.	8a\	.	.	.
8d\J	.	.	8r	.	.	.	.	.	.	.	.	.	.	8r	.	8r	.	.	.
!LO:LB:g=original	!	!	!LO:LB:g=original	!	!	!	!	!	!	!	!	!	!	!	!	!	!	!	!
=7	=7	=7	=7	=7	=7	=7	=7	=7	=7	=7	=7	=7	=7	=7	=7	=7	=7	=7	=7
4D\	.	.	8.a/L	.	2ryy	.	.	.	.	.	.	.	.	8.a\L	.	8.cc\L	.	2ryy	2ryy
.	.	.	16b/K	.	.	.	.	.	.	.	.	.	.	16b\K	.	16dd\K	.	.	.
8r	.	.	8a/	.	.	.	.	.	.	.	.	.	.	8a\	.	8cc\	.	.	.
8F#\	.	.	8a/J	.	.	.	.	.	.	.	.	.	.	8a\J	.	8cc\J	.	.	.
=8	=8	=8	=8	=8	=8	=8	=8	=8	=8	=8	=8	=8	=8	=8	=8	=8	=8	=8	=8
8G\L	4_	.	8.a/L	.	2ryy	.	.	.	.	.	.	.	.	4a\	.	4cc\	.	2ryy	2ryy
16G\L	.	.	.	.	.	.	.	.	.	.	.	.	.	.	.	.	.	.	.
16F#\JJ	x	.	32g/LL	.	.	.	.	.	.	.	.	.	.	.	.	.	.	.	.
.	.	.	32a/JJJ	.	.	.	.	.	.	.	.	.	.	.	.	.	.	.	.
!LO:TX:t=P:problem=mixed beam	!	!	!	!	!	!	!	!	!	!	!	!	!	!	!	!	!	!	!
8G\L	3	.	8g/	.	.	.	.	.	.	.	.	.	.	8g\	.	8b\	.	.	.
8GG/J	.	.	8r	.	.	.	.	.	.	.	.	.	.	8r	.	8r	.	.	.
=9	=9	=9	=9	=9	=9	=9	=9	=9	=9	=9	=9	=9	=9	=9	=9	=9	=9	=9	=9
4G\	.	.	8.b/L	.	2ryy	0r	.	0r	.	0r	.	0r	.	8.b\L	.	8.dd\L	.	2ryy	2ryy
.	.	.	16cc/K	.	.	.	.	.	.	.	.	.	.	16cc\K	.	16ee\K	.	.	.
4r	.	.	8b/	.	.	.	.	.	.	.	.	.	.	8b\	.	8dd\	.	.	.
.	.	.	8b/J	.	.	.	.	.	.	.	.	.	.	8b\J	.	8dd\J	.	.	.
=10	=10	=10	=10	=10	=10	=10	=10	=10	=10	=10	=10	=10	=10	=10	=10	=10	=10	=10	=10
8r	.	.	4b/	.	2ryy	.	.	.	.	.	.	.	.	4b\	.	4dd\	.	2ryy	2ryy
8G\L	.	.	.	.	.	.	.	.	.	.	.	.	.	.	.	.	.	.	.
8F#\	.	.	8a/L	.	.	.	.	.	.	.	.	.	.	8a\L	.	8cc\L	.	.	.
8G\J	.	.	8g/J	.	.	.	.	.	.	.	.	.	.	8g\J	.	8b\J	.	.	.
=11	=11	=11	=11	=11	=11	=11	=11	=11	=11	=11	=11	=11	=11	=11	=11	=11	=11	=11	=11
8C/L	6	.	8a/L	.	2ryy	.	.	.	.	.	.	.	.	4a\	.	4cc\	.	2ryy	2ryy
8C/	.	.	16cc/L	.	.	.	.	.	.	.	.	.	.	.	.	.	.	.	.
.	.	.	16a/JJ	.	.	.	.	.	.	.	.	.	.	.	.	.	.	.	.
8D/	4	.	8g/L	.	.	.	.	.	.	.	.	.	.	8g\L	.	8b\L	.	.	.
8DD/J	3	.	8f#/J	.	.	.	.	.	.	.	.	.	.	8d\J	.	8a\J	.	.	.
!	!	!	!	!	!	!	!	!	!	!	!	!	!	!LO:LB:g=original	!	!	!	!	!
=12	=12	=12	=12	=12	=12	=12	=12	=12	=12	=12	=12	=12	=12	=12	=12	=12	=12	=12	=12
*	*	*	*	*	*	*	*	*	*	*	*	*	*	*	*	*2\right	*	*	*
!	!	!LO:DY:a:t=for	!	!LO:DY:a	!	!	!	!	!	!	!	!	!	!	!	!	!	!	!
8GG/L	.	f	8g/L	f	2ryy	.	.	.	.	.	.	.	.	4B/	.	2g\	.	2ryy	2ryy
8GG/	.	.	8g/	.	.	.	.	.	.	.	.	.	.	.	.	.	.	.	.
8BB/	6_	.	8g/	.	.	.	.	.	.	.	.	.	.	4G/	.	.	.	.	.
8BB/J	.	.	8g/J	.	.	.	.	.	.	.	.	.	.	.	.	.	.	.	.
!	!	!	!	!	!	!	!	!	!	!	!	!	!	!	!	!LO:LB:g=original	!	!	!
=13	=13	=13	=13	=13	=13	=13	=13	=13	=13	=13	=13	=13	=13	=13	=13	=13	=13	=13	=13
*tremolo	*	*	*	*	*	*	*	*	*	*	*	*	*	*	*	*	*	*	*
*	*	*	*tremolo	*	*	*	*	*	*	*	*	*	*	*	*	*	*	*	*
8C/L	x	.	8g/L	.	2ryy	0r	.	0r	.	0r	.	0r	.	2G/	.	2g\	.	2ryy	2ryy
8C/	.	.	8g/	.	.	.	.	.	.	.	.	.	.	.	.	.	.	.	.
8C/	.	.	8g/	.	.	.	.	.	.	.	.	.	.	.	.	.	.	.	.
8C/J	.	.	8g/J	.	.	.	.	.	.	.	.	.	.	.	.	.	.	.	.
=14	=14	=14	=14	=14	=14	=14	=14	=14	=14	=14	=14	=14	=14	=14	=14	=14	=14	=14	=14
*2\right	*	*	*	*	*	*	*	*	*	*	*	*	*	*	*	*	*	*	*
8D\L	.	.	8a/L	.	2ryy	.	.	.	.	.	.	.	.	2d/	.	2a\	.	2ryy	2ryy
8D\	.	.	8a/	.	.	.	.	.	.	.	.	.	.	.	.	.	.	.	.
8D\	.	.	8a/	.	.	.	.	.	.	.	.	.	.	.	.	.	.	.	.
8D\J	.	.	8a/J	.	.	.	.	.	.	.	.	.	.	.	.	.	.	.	.
=15	=15	=15	=15	=15	=15	=15	=15	=15	=15	=15	=15	=15	=15	=15	=15	=15	=15	=15	=15
*	*	*	*	*	*	*	*	*	*	*	*	*	*	*2\right	*	*	*	*	*
8E\L	.	.	8b/L	.	2ryy	.	.	.	.	.	.	.	.	2g\	.	2b\	.	2ryy	2ryy
8E\	.	.	8b/	.	.	.	.	.	.	.	.	.	.	.	.	.	.	.	.
8E\	.	.	8b/	.	.	.	.	.	.	.	.	.	.	.	.	.	.	.	.
8E\J	.	.	8b/J	.	.	.	.	.	.	.	.	.	.	.	.	.	.	.	.
*	*	*	*Xtremolo	*	*	*	*	*	*	*	*	*	*	*	*	*	*	*	*
!	!	!	!LO:LB:g=original	!	!	!	!	!	!	!	!	!	!	!	!	!	!	!	!
=16	=16	=16	=16	=16	=16	=16	=16	=16	=16	=16	=16	=16	=16	=16	=16	=16	=16	=16	=16
8F#\L	6 5	.	8a/L	.	2ryy	.	.	.	.	.	.	.	.	2d/	.	2a\	.	2ryy	2ryy
8F#\	.	.	8a/	.	.	.	.	.	.	.	.	.	.	.	.	.	.	.	.
8F#\	.	.	8a/	.	.	.	.	.	.	.	.	.	.	.	.	.	.	.	.
8F#\J	.	.	8a/J	.	.	.	.	.	.	.	.	.	.	.	.	.	.	.	.
*Xtremolo	*	*	*	*	*	*	*	*	*	*	*	*	*	*	*	*	*	*	*
!LO:PB:g=original	!	!	!	!	!	!	!	!	!	!	!	!	!	!	!	!	!	!	!
=17	=17	=17	=17	=17	=17	=17	=17	=17	=17	=17	=17	=17	=17	=17	=17	=17	=17	=17	=17
!LO:TX:t=P:problem=mixed beam	!	!	!	!	!	!	!	!	!	!	!	!	!	!	!	!	!	!	!
8G\L	4_	.	8a/L	.	2ryy	0r	.	0r	.	0r	.	0r	.	4d/	.	4a\	.	2ryy	2ryy
8G\	.	.	16g/L	.	.	.	.	.	.	.	.	.	.	.	.	.	.	.	.
.	3	.	16a/JJ	.	.	.	.	.	.	.	.	.	.	.	.	.	.	.	.
!	!	!	!	!	!	!	!	!	!	!	!	!	!	!LO:TX:t=P:problem=mixed beam	!	!	!	!	!
8GG/	.	.	8g/L	.	.	.	.	.	.	.	.	.	.	8B/L	.	8g\L	.	.	.
8G\J	.	.	8b/J	.	.	.	.	.	.	.	.	.	.	8g\J	.	8b\J	.	.	.
=18	=18	=18	=18	=18	=18	=18	=18	=18	=18	=18	=18	=18	=18	=18	=18	=18	=18	=18	=18
!LO:TX:t=P:problem=mixed beam	!	!	!	!	!	!	!	!	!	!	!	!	!	!	!	!	!	!	!
8c\L	6	.	8a/L	.	2ryy	.	.	.	.	.	.	.	.	4a\	.	4cc\	.	2ryy	2ryy
8c\	.	.	16cc/L	.	.	.	.	.	.	.	.	.	.	.	.	.	.	.	.
.	.	.	16a/JJ	.	.	.	.	.	.	.	.	.	.	.	.	.	.	.	.
8d\	4	.	8g/L	.	.	.	.	.	.	.	.	.	.	8g\L	.	8b\L	.	.	.
8D/J	3	.	8f#/J	.	.	.	.	.	.	.	.	.	.	8d\J	.	8a\J	.	.	.
=19	=19	=19	=19	=19	=19	=19	=19	=19	=19	=19	=19	=19	=19	=19	=19	=19	=19	=19	=19
*tremolo	*	*	*	*	*	*	*	*	*	*	*	*	*	*	*	*	*	*	*
!LO:TX:a:i:t=taſto	!	!	!	!	!	!	!	!	!	!	!	!	!	!	!	!	!	!	!
8G\L	.	.	8g/L	.	2ryy	.	.	.	.	.	.	.	.	4B/	.	4g\	.	2ryy	2ryy
8G\	.	.	16B/L	.	.	.	.	.	.	.	.	.	.	.	.	.	.	.	.
.	.	.	16c/JJ	.	.	.	.	.	.	.	.	.	.	.	.	.	.	.	.
8G\	.	.	8B/L	.	.	.	.	.	.	.	.	.	.	4r	.	4r	.	.	.
8G\J	.	.	8d/J	.	.	.	.	.	.	.	.	.	.	.	.	.	.	.	.
=20	=20	=20	=20	=20	=20	=20	=20	=20	=20	=20	=20	=20	=20	=20	=20	=20	=20	=20	=20
8G\L	.	.	8.c/L	.	2ryy	.	.	.	.	.	.	.	.	8G/L	.	8g\L	.	2ryy	2ryy
8G\	.	.	.	.	.	.	.	.	.	.	.	.	.	16G/L	.	16g\L	.	.	.
.	.	.	16e/Jk	.	.	.	.	.	.	.	.	.	.	16G/JJ	.	16g\JJ	.	.	.
8G\	.	.	8A/L	.	.	.	.	.	.	.	.	.	.	8G/L	.	8g\L	.	.	.
8G\J	.	.	8A/J	.	.	.	.	.	.	.	.	.	.	8G/J	.	8g\J	.	.	.
=21	=21	=21	=21	=21	=21	=21	=21	=21	=21	=21	=21	=21	=21	=21	=21	=21	=21	=21	=21
8G\L	.	.	8B/L	.	2ryy	1r	.	0r	.	0r	.	0r	.	4G/	.	4g\	.	2ryy	2ryy
8G\	.	.	16B/L	.	.	.	.	.	.	.	.	.	.	.	.	.	.	.	.
.	.	.	16c/JJ	.	.	.	.	.	.	.	.	.	.	.	.	.	.	.	.
8G\	.	.	8B/L	.	.	.	.	.	.	.	.	.	.	4r	.	4r	.	.	.
8G\J	.	.	8d/J	.	.	.	.	.	.	.	.	.	.	.	.	.	.	.	.
=22	=22	=22	=22	=22	=22	=22	=22	=22	=22	=22	=22	=22	=22	=22	=22	=22	=22	=22	=22
8G\L	.	.	8.c/L	.	2ryy	.	.	.	.	.	.	.	.	8G/L	.	8g\L	.	2ryy	2ryy
8G\	.	.	.	.	.	.	.	.	.	.	.	.	.	16G/L	.	16g\L	.	.	.
.	.	.	16e/Jk	.	.	.	.	.	.	.	.	.	.	16G/JJ	.	16g\JJ	.	.	.
8G\	.	.	8A/L	.	.	.	.	.	.	.	.	.	.	8G/L	.	8g\L	.	.	.
8G\J	.	.	8A/J	.	.	.	.	.	.	.	.	.	.	8G/J	.	8g\J	.	.	.
*Xtremolo	*	*	*	*	*	*	*	*	*	*	*	*	*	*	*	*	*	*	*
!	!	!	!LO:LB:g=original	!	!	!	!	!	!	!	!	!	!	!LO:LB:g=original	!	!	!	!	!
=23	=23	=23	=23	=23	=23	=23	=23	=23	=23	=23	=23	=23	=23	=23	=23	=23	=23	=23	=23
!LO:TX:t=P:problem=mixed beam	!	!	!	!	!	!	!	!	!	!	!	!	!	!	!	!	!	!	!
8G\L	.	.	4A/	.	2ryy	2r	.	.	.	.	.	.	.	4G/	.	4g\	.	2ryy	2ryy
8GG/	.	.	.	.	.	.	.	.	.	.	.	.	.	.	.	.	.	.	.
8G\J	.	.	8B/	.	.	.	.	.	.	.	.	.	.	8G/	.	8g\	.	.	.
8r	.	.	8r	.	.	.	.	.	.	.	.	.	.	8r	.	8r	.	.	.
!	!	!	!	!	!	!	!	!	!	!	!	!	!	!	!	!LO:LB:g=original	!	!	!
=24	=24	=24	=24	=24	=24	=24	=24	=24	=24	=24	=24	=24	=24	=24	=24	=24	=24	=24	=24
!LO:TX:t=P:problem=mixed beam	!	!LO:DY:a	!	!LO:DY:a:rj	!	!LO:TX:a:i:t=Solo&colon;	!	!	!	!	!	!	!	!	!	!	!	!	!
8G\L	.	p	8g/L	p	2ryy	4GG/	Lau-	.	.	.	.	.	.	0r	.	0r	.	2ryy	2ryy
8GG/	.	.	8G/	.	.	.	.	.	.	.	.	.	.	.	.	.	.	.	.
8BB/	.	.	8B/	.	.	8BB/	-da-	.	.	.	.	.	.	.	.	.	.	.	.
8D/J	.	.	8d/J	.	.	8D\	-te	.	.	.	.	.	.	.	.	.	.	.	.
=25	=25	=25	=25	=25	=25	=25	=25	=25	=25	=25	=25	=25	=25	=25	=25	=25	=25	=25	=25
(8.G'\L	.	.	8.g/L	.	2ryy	8.G\	pu-	0r	.	0r	.	0r	.	.	.	.	.	2ryy	2ryy
32B\LL	.	.	32b/LL	.	.	32B\LLL	-e-	.	.	.	.	.	.	.	.	.	.	.	.
32A\JJJ)	.	.	32a/JJJ	.	.	32A\JJJ	.	.	.	.	.	.	.	.	.	.	.	.	.
8G'\L	.	.	8g/L	.	.	8G\	-ri	.	.	.	.	.	.	.	.	.	.	.	.
8B'\J	.	.	8b/J	.	.	8B\	lau-	.	.	.	.	.	.	.	.	.	.	.	.
!LO:LB:g=original	!	!	!	!	!	!	!	!	!	!	!	!	!	!	!	!	!	!	!
=26	=26	=26	=26	=26	=26	=26	=26	=26	=26	=26	=26	=26	=26	=26	=26	=26	=26	=26	=26
8.c'\L	.	.	8.cc\L	.	2ryy	8.c\L	-da-	.	.	.	.	.	.	.	.	.	.	2ryy	2ryy
16B'\Jk	.	.	16b\Jk	.	.	16B\Jk	.	.	.	.	.	.	.	.	.	.	.	.	.
16A'\LL	.	.	16a\LL	.	.	16A\LL	.	.	.	.	.	.	.	.	.	.	.	.	.
16B'\	.	.	16b\	.	.	16B\JJ	.	.	.	.	.	.	.	.	.	.	.	.	.
16c'\	.	.	16cc\	.	.	16c\LL	-te	.	.	.	.	.	.	.	.	.	.	.	.
16d'\JJ	.	.	16dd\JJ	.	.	16d\JJ	.	.	.	.	.	.	.	.	.	.	.	.	.
!	!	!	!	!	!	!LO:LB:g=original	!	!	!	!	!	!	!	!	!	!	!	!	!
=27	=27	=27	=27	=27	=27	=27	=27	=27	=27	=27	=27	=27	=27	=27	=27	=27	=27	=27	=27
8.B'\L	.	.	8.b/L	.	2ryy	8.B\	Do-	.	.	.	.	.	.	.	.	.	.	2ryy	2ryy
16A'\K	.	.	16a/K	.	.	16A\	-mi-	.	.	.	.	.	.	.	.	.	.	.	.
8G'\J	.	.	8g/J	.	.	8G\	-num	.	.	.	.	.	.	.	.	.	.	.	.
!	!	!	!LO:TX:b:i:t=Verte	!	!	!	!	!	!	!	!	!	!	!	!	!	!	!	!
8r	.	.	8r	.	.	8r	.	.	.	.	.	.	.	.	.	.	.	.	.
!	!	!	!LO:PB:g=original	!	!	!	!	!	!	!	!	!	!	!	!	!	!	!	!
=28	=28	=28	=28	=28	=28	=28	=28	=28	=28	=28	=28	=28	=28	=28	=28	=28	=28	=28	=28
8r	.	.	8r	.	2ryy	4G\	lau-	.	.	.	.	.	.	0r	.	0r	.	2ryy	2ryy
8G\L	.	.	8d/L	.	.	.	.	.	.	.	.	.	.	.	.	.	.	.	.
8G\	.	.	8d/	.	.	8B\	-da-	.	.	.	.	.	.	.	.	.	.	.	.
8G\J	.	.	8d/J	.	.	16A\LL	-te	.	.	.	.	.	.	.	.	.	.	.	.
.	.	.	.	.	.	16G\JJ	.	.	.	.	.	.	.	.	.	.	.	.	.
=29	=29	=29	=29	=29	=29	=29	=29	=29	=29	=29	=29	=29	=29	=29	=29	=29	=29	=29	=29
8r	.	.	8r	.	2ryy	16F#\LL	No-	0r	.	0r	.	0r	.	.	.	.	.	2ryy	2ryy
.	.	.	.	.	.	16E\	.	.	.	.	.	.	.	.	.	.	.	.	.
8D\L	.	.	8f#/L	.	.	16F#\	.	.	.	.	.	.	.	.	.	.	.	.	.
.	.	.	.	.	.	16G\JJ	.	.	.	.	.	.	.	.	.	.	.	.	.
8D\	.	.	8f#/	.	.	8A\	-men	.	.	.	.	.	.	.	.	.	.	.	.
8D\J	.	.	8f#/J	.	.	8r	.	.	.	.	.	.	.	.	.	.	.	.	.
=30	=30	=30	=30	=30	=30	=30	=30	=30	=30	=30	=30	=30	=30	=30	=30	=30	=30	=30	=30
*	*	*	*	*	*	*	*ij	*	*	*	*	*	*	*	*	*	*	*	*
8r	.	.	8r	.	2ryy	4A\	lau-	.	.	.	.	.	.	.	.	.	.	2ryy	2ryy
8F#\L	6_ 5_	.	8d/L	.	.	.	.	.	.	.	.	.	.	.	.	.	.	.	.
8F#\	.	.	8d/	.	.	8c\	-da-	.	.	.	.	.	.	.	.	.	.	.	.
8F#\J	x x	.	8d/J	.	.	16B\LL	-te	.	.	.	.	.	.	.	.	.	.	.	.
.	.	.	.	.	.	16A\JJ	.	.	.	.	.	.	.	.	.	.	.	.	.
=31	=31	=31	=31	=31	=31	=31	=31	=31	=31	=31	=31	=31	=31	=31	=31	=31	=31	=31	=31
8r	.	.	8r	.	2ryy	16G\LL	No-	.	.	.	.	.	.	.	.	.	.	2ryy	2ryy
.	.	.	.	.	.	16F#\	.	.	.	.	.	.	.	.	.	.	.	.	.
8G\L	.	.	8d/L	.	.	16G\	.	.	.	.	.	.	.	.	.	.	.	.	.
.	.	.	.	.	.	16A\JJ	.	.	.	.	.	.	.	.	.	.	.	.	.
8G\	.	.	8d/	.	.	8B\	-men	.	.	.	.	.	.	.	.	.	.	.	.
*	*	*	*	*	*	*	*Xij	*	*	*	*	*	*	*	*	*	*	*	*
8G\J	.	.	8d/J	.	.	8r	.	.	.	.	.	.	.	.	.	.	.	.	.
!	!	!	!	!	!	!LO:LB:g=original	!	!	!	!	!	!	!	!	!	!	!	!	!
=32	=32	=32	=32	=32	=32	=32	=32	=32	=32	=32	=32	=32	=32	=32	=32	=32	=32	=32	=32
8r	.	.	8r	.	2ryy	4B\	lau-	.	.	.	.	.	.	0r	.	0r	.	2ryy	2ryy
8G\L	.	.	8b/L	.	.	.	.	.	.	.	.	.	.	.	.	.	.	.	.
8G\	.	.	8b/	.	.	8d\	-da-	.	.	.	.	.	.	.	.	.	.	.	.
8G\J	.	.	8b/J	.	.	16c\LL	-te	.	.	.	.	.	.	.	.	.	.	.	.
.	.	.	.	.	.	16B\JJ	.	.	.	.	.	.	.	.	.	.	.	.	.
=33	=33	=33	=33	=33	=33	=33	=33	=33	=33	=33	=33	=33	=33	=33	=33	=33	=33	=33	=33
*tremolo	*	*	*tremolo	*	*	*	*	*	*	*	*	*	*	*	*	*	*	*	*
8c\L	6_	.	8a/L	.	2ryy	16B\LL	no-	0r	.	1r	.	1r	.	.	.	.	.	2ryy	2ryy
.	.	.	.	.	.	16A\	.	.	.	.	.	.	.	.	.	.	.	.	.
8c\	.	.	8a/	.	.	16G\	.	.	.	.	.	.	.	.	.	.	.	.	.
.	.	.	.	.	.	16A\JJ	.	.	.	.	.	.	.	.	.	.	.	.	.
8c\	.	.	8a/	.	.	8.A\L	-men	.	.	.	.	.	.	.	.	.	.	.	.
8c\J	.	.	8a/J	.	.	.	.	.	.	.	.	.	.	.	.	.	.	.	.
.	.	.	.	.	.	32B\LL	.	.	.	.	.	.	.	.	.	.	.	.	.
.	x	.	.	.	.	32c\JJJ	.	.	.	.	.	.	.	.	.	.	.	.	.
*Xtremolo	*	*	*Xtremolo	*	*	*	*	*	*	*	*	*	*	*	*	*	*	*	*
!LO:LB:g=original	!	!	!	!	!	!	!	!	!	!	!	!	!	!	!	!	!	!	!
=34	=34	=34	=34	=34	=34	=34	=34	=34	=34	=34	=34	=34	=34	=34	=34	=34	=34	=34	=34
8B\L	6	.	8b\L	.	2ryy	16B\LL	Do-	.	.	.	.	.	.	.	.	.	.	2ryy	2ryy
.	.	.	.	.	.	16G\	.	.	.	.	.	.	.	.	.	.	.	.	.
8c\	6	.	16cc\L	.	.	16c\	.	.	.	.	.	.	.	.	.	.	.	.	.
.	.	.	16a\JJ	.	.	16A\JJ	.	.	.	.	.	.	.	.	.	.	.	.	.
8d\	4	.	8g/L	.	.	8d\	.	.	.	.	.	.	.	.	.	.	.	.	.
8D\J	3	.	8f#/J	.	.	8D\	-mi-	.	.	.	.	.	.	.	.	.	.	.	.
=35	=35	=35	=35	=35	=35	=35	=35	=35	=35	=35	=35	=35	=35	=35	=35	=35	=35	=35	=35
16GG/LL	.	.	32g/LLL	.	2ryy	4G\	-ni	.	.	2r	.	2r	.	.	.	.	.	2ryy	2ryy
.	.	.	32G/	.	.	.	.	.	.	.	.	.	.	.	.	.	.	.	.
32AA/L	.	.	32A/	.	.	.	.	.	.	.	.	.	.	.	.	.	.	.	.
(32BB/	.	.	(32B/	.	.	.	.	.	.	.	.	.	.	.	.	.	.	.	.
32C/	.	.	32c/	.	.	.	.	.	.	.	.	.	.	.	.	.	.	.	.
32D/	.	.	32d/	.	.	.	.	.	.	.	.	.	.	.	.	.	.	.	.
32E/	.	.	32e/)	.	.	.	.	.	.	.	.	.	.	.	.	.	.	.	.
32F#/JJJ)	.	.	32f#/JJJ	.	.	.	.	.	.	.	.	.	.	.	.	.	.	.	.
!	!	!	!LO:LB:g=original	!	!	!	!	!	!	!	!	!	!	!	!	!	!	!	!
16G'\LL	.	.	16g'/LL	.	.	4r	.	.	.	.	.	.	.	.	.	.	.	.	.
16D'\	.	.	16d'/	.	.	.	.	.	.	.	.	.	.	.	.	.	.	.	.
16BB'\	.	.	16B'/	.	.	.	.	.	.	.	.	.	.	.	.	.	.	.	.
16D'\JJ	.	.	16d'/JJ	.	.	.	.	.	.	.	.	.	.	.	.	.	.	.	.
=36	=36	=36	=36	=36	=36	=36	=36	=36	=36	=36	=36	=36	=36	=36	=36	=36	=36	=36	=36
!LO:TX:t=P:problem=mixed beam	!	!	!	!	!	!	!	!	!	!LO:TX:a:i:t=Solo&colon;	!	!LO:TX:a:i:t=Solo&colon;	!	!	!	!	!	!	!
8GG'/L	.	.	4G/	.	2ryy	0r	.	.	.	8r	.	8r	.	0r	.	0r	.	2ryy	2ryy
8G/J	.	.	.	.	.	.	.	.	.	8g\	ſit	8b\	ſit	.	.	.	.	.	.
4r	.	.	4r	.	.	.	.	.	.	16g\LL	no-	16b\LL	No-	.	.	.	.	.	.
.	.	.	.	.	.	.	.	.	.	16f#\JJ	.	16a\JJ	.	.	.	.	.	.	.
.	.	.	.	.	.	.	.	.	.	16g\LL	-men	16b\LL	-men	.	.	.	.	.	.
.	.	.	.	.	.	.	.	.	.	16a\JJ	.	16cc\JJ	.	.	.	.	.	.	.
=37	=37	=37	=37	=37	=37	=37	=37	=37	=37	=37	=37	=37	=37	=37	=37	=37	=37	=37	=37
8r	.	.	8r	.	2ryy	.	.	0r	.	8.b\	Do-	8.dd\	Do-	.	.	.	.	2ryy	2ryy
16G\LL	.	.	16g/LL	.	.	.	.	.	.	.	.	.	.	.	.	.	.	.	.
16F#\JJ	.	.	16f#/JJ	.	.	.	.	.	.	16a\	-mi-	16cc\	-mi-	.	.	.	.	.	.
16G\LL	.	.	16g/LL	.	.	.	.	.	.	4g\	-ni	4b\	-ni	.	.	.	.	.	.
16A\	.	.	16a/	.	.	.	.	.	.	.	.	.	.	.	.	.	.	.	.
16B\	.	.	16b/	.	.	.	.	.	.	.	.	.	.	.	.	.	.	.	.
16c#X\JJ	.	.	16cc#X/JJ	.	.	.	.	.	.	.	.	.	.	.	.	.	.	.	.
=38	=38	=38	=38	=38	=38	=38	=38	=38	=38	=38	=38	=38	=38	=38	=38	=38	=38	=38	=38
!	!	!	!LO:TX:t=P:problem=mixed beam	!	!	!	!	!	!	!	!	!	!	!	!	!	!	!	!
8d\L	.	.	8dd\L	.	2ryy	.	.	.	.	8r	.	8r	.	.	.	.	.	2ryy	2ryy
8D\J	.	.	8d/J	.	.	.	.	.	.	8f#\	ſit	8a\	ſit	.	.	.	.	.	.
4r	.	.	4r	.	.	.	.	.	.	16f#\LL	no-	16a\LL	no-	.	.	.	.	.	.
.	.	.	.	.	.	.	.	.	.	16e\JJ	.	16g\JJ	.	.	.	.	.	.	.
.	.	.	.	.	.	.	.	.	.	16f#\LL	-men	16a\LL	-men	.	.	.	.	.	.
.	.	.	.	.	.	.	.	.	.	16g\JJ	.	16b\JJ	.	.	.	.	.	.	.
!	!	!	!	!	!	!	!	!	!	!LO:LB:g=original	!	!LO:LB:g=original	!	!	!	!	!	!	!
=39	=39	=39	=39	=39	=39	=39	=39	=39	=39	=39	=39	=39	=39	=39	=39	=39	=39	=39	=39
8r	.	.	8r	.	2ryy	.	.	.	.	8.a\	Do-	8.cc\	Do-	.	.	.	.	2ryy	2ryy
16D\LL	.	.	16d/LL	.	.	.	.	.	.	.	.	.	.	.	.	.	.	.	.
!	!	!	!LO:SIC:v:s=16c#	!	!	!	!	!	!	!	!	!	!	!	!	!	!	!	!
16C#X\JJ	.	.	16c/JJ	.	.	.	.	.	.	16g\	-mi-	16b\	-mi-	.	.	.	.	.	.
16D\LL	.	.	16d/LL	.	.	.	.	.	.	4f#\	-ni	4a\	-ni	.	.	.	.	.	.
16E\	.	.	16e/	.	.	.	.	.	.	.	.	.	.	.	.	.	.	.	.
16F#\	.	.	16f#/	.	.	.	.	.	.	.	.	.	.	.	.	.	.	.	.
16D\JJ	.	.	16d/JJ	.	.	.	.	.	.	.	.	.	.	.	.	.	.	.	.
!LO:LB:g=original	!	!	!	!	!	!	!	!	!	!	!	!	!	!	!	!	!	!	!
=40	=40	=40	=40	=40	=40	=40	=40	=40	=40	=40	=40	=40	=40	=40	=40	=40	=40	=40	=40
!LO:TX:t=P:problem=mixed beam	!	!	!	!	!	!	!	!	!	!	!	!	!	!	!	!	!	!	!
8G\L	.	.	8g/L	.	2ryy	0r	.	.	.	8r	.	8r	.	1r	.	1r	.	2ryy	2ryy
8GG/J	.	.	8G/J	.	.	.	.	.	.	8g\	ſit	8b\	ſit	.	.	.	.	.	.
4r	.	.	4r	.	.	.	.	.	.	8a\	no-	8cc\	No-	.	.	.	.	.	.
.	.	.	.	.	.	.	.	.	.	8b\	-men	8dd\	-men	.	.	.	.	.	.
=41	=41	=41	=41	=41	=41	=41	=41	=41	=41	=41	=41	=41	=41	=41	=41	=41	=41	=41	=41
8r	.	.	8r	.	2ryy	.	.	0r	.	4.cc\	Do-	(4.ee\	Do-	.	.	.	.	2ryy	2ryy
16G\LL	6_ 4_	.	16g/LL	.	.	.	.	.	.	.	.	.	.	.	.	.	.	.	.
16F#\JJ	.	.	16f#/JJ	.	.	.	.	.	.	.	.	.	.	.	.	.	.	.	.
!LO:TX:t=P:problem=mixed beam	!	!	!	!	!	!	!	!	!	!	!	!	!	!	!	!	!	!	!
8G\L	.	.	8g/L	.	.	.	.	.	.	.	.	.	.	.	.	.	.	.	.
8GG/J	5 3	.	8g/J	.	.	.	.	.	.	8b\	.	8dd\)	.	.	.	.	.	.	.
=42	=42	=42	=42	=42	=42	=42	=42	=42	=42	=42	=42	=42	=42	=42	=42	=42	=42	=42	=42
*	*	*	*tremolo	*	*	*	*	*	*	*	*	*	*	*	*	*	*	*	*
8C/L	6_	.	8e/L	.	2ryy	.	.	.	.	16a\LL	-mi-	16cc\LL	-mi-	8r	.	8r	.	2ryy	2ryy
.	.	.	.	.	.	.	.	.	.	16g\JJ	.	16b\JJ	.	.	.	.	.	.	.
8C/	.	.	8e/	.	.	.	.	.	.	16a\LL	-ni	16cc\LL	-ni	8a\L	.	8cc\L	.	.	.
.	.	.	.	.	.	.	.	.	.	16b\JJ	.	16dd\JJ	.	.	.	.	.	.	.
8C/	x	.	8e/	.	.	.	.	.	.	8a\	be-	8cc\	be-	8a\	.	8cc\	.	.	.
8C#X/J	5	.	8e/J	.	.	.	.	.	.	8g\	-ne-	8b\	-ne-	8g\J	.	8b\J	.	.	.
*	*	*	*Xtremolo	*	*	*	*	*	*	*	*	*	*	*	*	*	*	*	*
!	!	!	!LO:LB:g=original	!	!	!	!	!	!	!	!	!	!	!	!	!	!	!	!
=43	=43	=43	=43	=43	=43	=43	=43	=43	=43	=43	=43	=43	=43	=43	=43	=43	=43	=43	=43
8D/L	4_	.	8d/L	.	2ryy	.	.	.	.	4g\	-dic-	4b\	-dic-	4g\	.	4b\	.	2ryy	2ryy
16D/L	.	.	8d/	.	.	.	.	.	.	.	.	.	.	.	.	.	.	.	.
16C/JJ	x	.	.	.	.	.	.	.	.	.	.	.	.	.	.	.	.	.	.
8D/L	3	.	8d/J	.	.	.	.	.	.	8f#\	-tum	8a\	-tum	8d/	.	8a\	.	.	.
16AA/L	.	.	8r	.	.	.	.	.	.	8r	.	8r	.	8r	.	8r	.	.	.
16FF#/JJ	.	.	.	.	.	.	.	.	.	.	.	.	.	.	.	.	.	.	.
=44	=44	=44	=44	=44	=44	=44	=44	=44	=44	=44	=44	=44	=44	=44	=44	=44	=44	=44	=44
!LO:TX:t=P:problem=mixed beam	!	!	!	!	!	!	!	!	!	!	!	!	!	!	!	!	!	!	!
8DD/L	.	.	8f#/L	.	2ryy	8r	.	.	.	16f#\LL	ex	16a\LL	ex	0r	.	0r	.	2ryy	2ryy
.	.	.	.	.	.	.	.	.	.	16e\	.	16g\	.	.	.	.	.	.	.
8D\	.	.	8f#/	.	.	8D\	lau-	.	.	16f#\	.	16a\	.	.	.	.	.	.	.
.	.	.	.	.	.	.	.	.	.	16g\JJ	.	16b\JJ	.	.	.	.	.	.	.
8D\	.	.	8f#/	.	.	8F#\L	-da-	.	.	4a\	hoc	4cc\	hoc	.	.	.	.	.	.
8D\J	.	.	8f#/J	.	.	8A\J	.	.	.	.	.	.	.	.	.	.	.	.	.
!	!	!	!	!	!	!	!	!	!	!LO:LB:g=original	!	!LO:LB:g=original	!	!	!	!	!	!	!
=45	=45	=45	=45	=45	=45	=45	=45	=45	=45	=45	=45	=45	=45	=45	=45	=45	=45	=45	=45
*tremolo	*	*	*tremolo	*	*	*	*	*	*	*	*	*	*	*	*	*	*	*	*
8D\L	.	.	8f#/L	.	2ryy	4D\	-te	0r	.	8r	.	8r	.	.	.	.	.	2ryy	2ryy
8D\	.	.	8f#/	.	.	.	.	.	.	8a\	hoc	8cc\	hoc	.	.	.	.	.	.
8D\	.	.	8f#/	.	.	4r	.	.	.	16b\LL	nunc	16dd\LL	nunc	.	.	.	.	.	.
.	.	.	.	.	.	.	.	.	.	16a\JJ	.	16cc\JJ	.	.	.	.	.	.	.
8D\J	.	.	8f#/J	.	.	.	.	.	.	16g\LL	&	16b\LL	&	.	.	.	.	.	.
.	.	.	.	.	.	.	.	.	.	16f#\JJ	.	16a\JJ	.	.	.	.	.	.	.
!	!	!	!	!	!	!LO:LB:g=original	!	!	!	!	!	!	!	!	!	!	!	!	!
=46	=46	=46	=46	=46	=46	=46	=46	=46	=46	=46	=46	=46	=46	=46	=46	=46	=46	=46	=46
8G\L	.	.	8d/L	.	2ryy	8r	.	.	.	16g\LL	us-	16b\LL	uſ-	.	.	.	.	2ryy	2ryy
.	.	.	.	.	.	.	.	.	.	16f#\	.	16a\	.	.	.	.	.	.	.
8G\	.	.	8d/	.	.	8G\	lau-	.	.	16g\	.	16b\	.	.	.	.	.	.	.
.	.	.	.	.	.	.	.	.	.	16a\JJ	.	16cc\JJ	.	.	.	.	.	.	.
8G\	.	.	8d/	.	.	8B\L	-da-	.	.	4b\	-que	4dd\	-que	.	.	.	.	.	.
8G\J	.	.	8d/J	.	.	8d\J	.	.	.	.	.	.	.	.	.	.	.	.	.
=47	=47	=47	=47	=47	=47	=47	=47	=47	=47	=47	=47	=47	=47	=47	=47	=47	=47	=47	=47
8G\L	.	.	8d/L	.	2ryy	4G\	-te	.	.	8r	.	8r	.	.	.	.	.	2ryy	2ryy
8G\	.	.	8d/	.	.	.	.	.	.	(8b\	ex	(8dd\	ex	.	.	.	.	.	.
8G\	.	.	8d/	.	.	4r	.	.	.	16cc\LL)	.	16ee\LL)	.	.	.	.	.	.	.
.	.	.	.	.	.	.	.	.	.	16b\JJ	.	16dd\JJ	.	.	.	.	.	.	.
8G\J	.	.	8d/J	.	.	.	.	.	.	16a\LL	hoc	16cc\LL	hoc	.	.	.	.	.	.
.	.	.	.	.	.	.	.	.	.	16g\JJ	.	16b\JJ	.	.	.	.	.	.	.
=48	=48	=48	=48	=48	=48	=48	=48	=48	=48	=48	=48	=48	=48	=48	=48	=48	=48	=48	=48
8F#\L	6 5	.	8d/L	.	2ryy	1r	.	.	.	8.a\L	nunc	8.cc\L	nunc	2r	.	2r	.	2ryy	2ryy
8F#\	.	.	8d/	.	.	.	.	.	.	.	.	.	.	.	.	.	.	.	.
.	.	.	.	.	.	.	.	.	.	32g\LL	.	32b\LL	.	.	.	.	.	.	.
.	.	.	.	.	.	.	.	.	.	32a\JJJ	.	32cc\JJJ	.	.	.	.	.	.	.
8F#\	.	.	8d/	.	.	.	.	.	.	8b\	.	8dd\	.	.	.	.	.	.	.
8F#\J	.	.	8d/J	.	.	.	.	.	.	8a\	&	8cc\	&	.	.	.	.	.	.
*Xtremolo	*	*	*Xtremolo	*	*	*	*	*	*	*	*	*	*	*	*	*	*	*	*
!LO:LB:g=original	!	!	!	!	!	!	!	!	!	!	!	!	!	!	!	!	!	!	!
=49	=49	=49	=49	=49	=49	=49	=49	=49	=49	=49	=49	=49	=49	=49	=49	=49	=49	=49	=49
!LO:TX:t=P:problem=mixed beam	!	!	!	!	!	!	!	!	!	!	!	!	!	!	!	!	!	!	!
8G\L	4_	.	8c/L	.	2ryy	.	.	0r	.	4a\	us-	4cc\	us-	4r	.	4r	.	2ryy	2ryy
8G\	.	.	8c/	.	.	.	.	.	.	.	.	.	.	.	.	.	.	.	.
8GG/	3	.	8B/	.	.	.	.	.	.	8g\	-que	8b\	-que	8r	.	8r	.	.	.
8G\J	.	.	8d/J	.	.	.	.	.	.	8b\	us-	8dd\	us-	8g\	.	8b\	.	.	.
!	!	!	!	!	!	!	!	!	!	!LO:LB:g=original	!	!LO:LB:g=original	!	!	!	!	!	!	!
=50	=50	=50	=50	=50	=50	=50	=50	=50	=50	=50	=50	=50	=50	=50	=50	=50	=50	=50	=50
8c\L	6_	.	8c/L	.	2ryy	2r	.	.	.	8a\	-que	8cc\	-que	4a\	.	4cc\	.	2ryy	2ryy
8c\	.	.	8c/	.	.	.	.	.	.	8a\	in	16ee\LL	in	.	.	.	.	.	.
.	.	.	.	.	.	.	.	.	.	.	.	16cc\JJ	.	.	.	.	.	.	.
8d\	4	.	8B/	.	.	.	.	.	.	8g\	ſae-	8b\	ſae-	8g\L	.	8b\L	.	.	.
8D\J	3	.	8A/J	.	.	.	.	.	.	8f#\	-cu-	8a\	-cu-	8d\J	.	8a\J	.	.	.
=51	=51	=51	=51	=51	=51	=51	=51	=51	=51	=51	=51	=51	=51	=51	=51	=51	=51	=51	=51
!LO:TX:t=P:problem=mixed beam	!	!	!	!	!	!	!	!	!	!	!	!	!	!	!	!	!	!	!
8G\L	.	.	8B/L	.	2ryy	8r	.	.	.	4g\	-lum	4b\	-lum	4B/	.	4g\	.	2ryy	2ryy
8GG'/	.	.	8G/	.	.	8GG/	lau-	.	.	.	.	.	.	.	.	.	.	.	.
8BB'/	.	.	8B/	.	.	8BB/	-da-	.	.	4r	.	4r	.	4r	.	4r	.	.	.
8D'/J	.	.	8d/J	.	.	8D\	-te	.	.	.	.	.	.	.	.	.	.	.	.
=52	=52	=52	=52	=52	=52	=52	=52	=52	=52	=52	=52	=52	=52	=52	=52	=52	=52	=52	=52
8G'\L	.	.	8g/L	.	2ryy	8G\	pu-	.	.	2r	.	2r	.	0r	.	0r	.	2ryy	2ryy
16B'\L	.	.	16b/L	.	.	16B\	-e-	.	.	.	.	.	.	.	.	.	.	.	.
16A'\JJ	.	.	16a/JJ	.	.	16A\	-ri	.	.	.	.	.	.	.	.	.	.	.	.
16G'\LL	.	.	16g/LL	.	.	16G\LL	no-	.	.	.	.	.	.	.	.	.	.	.	.
16A'\	.	.	16a/	.	.	16A\JJ	.	.	.	.	.	.	.	.	.	.	.	.	.
16B'\	.	.	16b/	.	.	16B\LL	-men	.	.	.	.	.	.	.	.	.	.	.	.
16c#X\JJ	.	.	16cc#X/JJ	.	.	16c#X\JJ	.	.	.	.	.	.	.	.	.	.	.	.	.
!	!	!	!LO:LB:g=original	!	!	!	!	!	!	!	!	!	!	!	!	!	!	!	!
=53	=53	=53	=53	=53	=53	=53	=53	=53	=53	=53	=53	=53	=53	=53	=53	=53	=53	=53	=53
!	!	!	!LO:TX:t=P:problem=mixed beam	!	!	!	!	!	!	!	!	!	!	!	!	!	!	!	!
8d'\L	.	.	8dd\L	.	2ryy	8.d\	Do-	0r	.	4r	.	4r	.	.	.	.	.	2ryy	2ryy
(32D\LL	.	.	32d/LL	.	.	.	.	.	.	.	.	.	.	.	.	.	.	.	.
32E\	.	.	32e/	.	.	.	.	.	.	.	.	.	.	.	.	.	.	.	.
32F#\	.	.	32f#/	.	.	16D\	-mi-	.	.	.	.	.	.	.	.	.	.	.	.
32E\JJJ)	.	.	32e/JJJ	.	.	.	.	.	.	.	.	.	.	.	.	.	.	.	.
8D\	.	.	8d/	.	.	8D\	-ni	.	.	8r	.	8r	.	.	.	.	.	.	.
8r	.	.	8r	.	.	8r	.	.	.	8f#\	a	8a\	a	.	.	.	.	.	.
!	!	!	!	!	!	!LO:LB:g=original	!	!	!	!	!	!	!	!	!	!	!	!	!
=54	=54	=54	=54	=54	=54	=54	=54	=54	=54	=54	=54	=54	=54	=54	=54	=54	=54	=54	=54
8r	.	.	8r	.	2ryy	1r	.	.	.	4.f#\	ſo-	8.a\L	ſo-	.	.	.	.	2ryy	2ryy
8D\L	.	.	8f#/L	.	.	.	.	.	.	.	.	.	.	.	.	.	.	.	.
.	.	.	.	.	.	.	.	.	.	.	.	32b\LL	.	.	.	.	.	.	.
.	.	.	.	.	.	.	.	.	.	.	.	32cc\JJJ	.	.	.	.	.	.	.
8D\	.	.	8f#/	.	.	.	.	.	.	.	.	8dd\	.	.	.	.	.	.	.
8D\J	7 5	.	8f#/J	.	.	.	.	.	.	8a\	-lis	8cc\	-lis	.	.	.	.	.	.
=55	=55	=55	=55	=55	=55	=55	=55	=55	=55	=55	=55	=55	=55	=55	=55	=55	=55	=55	=55
8r	.	.	8r	.	2ryy	.	.	.	.	4a\	or-	4cc\	or-	.	.	.	.	2ryy	2ryy
!LO:TX:t=P:problem=mixed beam	!	!	!	!	!	!	!	!	!	!	!	!	!	!	!	!	!	!	!
8G\L	4	.	8g/L	.	.	.	.	.	.	.	.	.	.	.	.	.	.	.	.
8GG/	3_	.	8g/	.	.	.	.	.	.	8g\	-tu	8b\	-tu	.	.	.	.	.	.
8GG/J	x	.	8g/J	.	.	.	.	.	.	8r	.	8r	.	.	.	.	.	.	.
!LO:LB:g=original	!	!	!	!	!	!	!	!	!	!	!	!LO:LB:g=original	!	!	!	!	!	!	!
=56	=56	=56	=56	=56	=56	=56	=56	=56	=56	=56	=56	=56	=56	=56	=56	=56	=56	=56	=56
8r	.	.	8r	.	2ryy	2r	.	.	.	8g\	us-	8b\	uſ-	0r	.	0r	.	2ryy	2ryy
8G\L	7	.	8e/L	.	.	.	.	.	.	8g\	-que	16cc#X\LL	-que	.	.	.	.	.	.
.	.	.	.	.	.	.	.	.	.	.	.	16dd\JJ	.	.	.	.	.	.	.
8G\	6	.	8e/	.	.	.	.	.	.	8g\	ad	8ee\	ad	.	.	.	.	.	.
8G#X\J	5	.	8d/J	.	.	.	.	.	.	8f#\	oc-	8dd\	oc-	.	.	.	.	.	.
!	!	!	!	!	!	!	!	!	!	!LO:LB:g=original	!	!	!	!	!	!	!	!	!
=57	=57	=57	=57	=57	=57	=57	=57	=57	=57	=57	=57	=57	=57	=57	=57	=57	=57	=57	=57
!LO:TX:t=P:problem=mixed beam	!	!	!	!	!	!	!	!	!	!	!	!	!	!	!	!	!	!	!
8A\L	4	.	4d/	.	2ryy	8r	.	0r	.	4f#\	-ca-	4dd\	-ca-	.	.	.	.	2ryy	2ryy
8A\	.	.	.	.	.	8A\	lau-	.	.	.	.	.	.	.	.	.	.	.	.
8AA/	#_	.	8c#X/	.	.	4A\	-da-	.	.	8e\	-ſum	8cc#X\	-ſum	.	.	.	.	.	.
8AA/J	x	.	8r	.	.	.	.	.	.	8r	.	8r	.	.	.	.	.	.	.
=58	=58	=58	=58	=58	=58	=58	=58	=58	=58	=58	=58	=58	=58	=58	=58	=58	=58	=58	=58
4A\	.	.	0r	.	2ryy	4A\	-te	.	.	8r	.	8r	.	.	.	.	.	2ryy	2ryy
.	.	.	.	.	.	.	.	.	.	8e\L	lau-	8cc#X\L	lau-	.	.	.	.	.	.
4r	.	.	.	.	.	4r	.	.	.	8f#\	.	8dd\	.	.	.	.	.	.	.
.	.	.	.	.	.	.	.	.	.	8g\J	.	8ee\J	.	.	.	.	.	.	.
=59	=59	=59	=59	=59	=59	=59	=59	=59	=59	=59	=59	=59	=59	=59	=59	=59	=59	=59	=59
8r	.	.	.	.	2ryy	8r	.	.	.	4.f#\	-da-	4.dd\	-da-	.	.	.	.	2ryy	2ryy
8B\L	3_	.	.	.	.	8B\L	no-	.	.	.	.	.	.	.	.	.	.	.	.
8A\	.	.	.	.	.	8A\	.	.	.	.	.	.	.	.	.	.	.	.	.
8G#X\J	.	.	.	.	.	8G#X\J	.	.	.	8f#\	-bi-	8dd\	-bi-	.	.	.	.	.	.
=60	=60	=60	=60	=60	=60	=60	=60	=60	=60	=60	=60	=60	=60	=60	=60	=60	=60	=60	=60
!LO:TX:t=P:problem=mixed beam	!	!	!	!	!	!	!	!	!	!	!	!	!	!	!	!	!	!	!
8A\L	#	.	.	.	2ryy	4A\	-men	.	.	8e\	-le	8cc#X\	-le	0r	.	0r	.	2ryy	2ryy
8AA/J	.	.	.	.	.	.	.	.	.	8e\L	lau-	8cc#\L	lau-	.	.	.	.	.	.
4r	.	.	.	.	.	4r	.	.	.	8f#\	.	8dd\	.	.	.	.	.	.	.
.	.	.	.	.	.	.	.	.	.	8g\J	.	8ee\J	.	.	.	.	.	.	.
=61	=61	=61	=61	=61	=61	=61	=61	=61	=61	=61	=61	=61	=61	=61	=61	=61	=61	=61	=61
8r	.	.	.	.	2ryy	8r	.	0r	.	4.f#\	-da-	4.dd\	-da-	.	.	.	.	2ryy	2ryy
8B\L	3_	.	.	.	.	8B\	lau-	.	.	.	.	.	.	.	.	.	.	.	.
8A\	.	.	.	.	.	8A\L	-da-	.	.	.	.	.	.	.	.	.	.	.	.
8G#X\J	.	.	.	.	.	8G#X\J	.	.	.	8f#\	-bi-	8dd\	-bi-	.	.	.	.	.	.
!	!	!	!	!	!	!	!	!	!	!	!	!LO:LB:g=original	!	!	!	!	!	!	!
=62	=62	=62	=62	=62	=62	=62	=62	=62	=62	=62	=62	=62	=62	=62	=62	=62	=62	=62	=62
!LO:TX:t=P:problem=mixed beam	!	!	!	!	!	!	!	!	!	!	!	!	!	!	!	!	!	!	!
8A\L	#_	.	0r	.	2ryy	4A\	-te	.	.	8e\	-le	8cc#X\	-le	.	.	.	.	2ryy	2ryy
8AA\	.	.	.	.	.	.	.	.	.	4e\	No-	4cc#\	No-	.	.	.	.	.	.
8A\	.	.	.	.	.	4r	.	.	.	.	.	.	.	.	.	.	.	.	.
8Gn\J	x	.	.	.	.	.	.	.	.	16d\LL	.	16b\LL	.	.	.	.	.	.	.
.	.	.	.	.	.	.	.	.	.	16e\JJ	.	16cc#\JJ	.	.	.	.	.	.	.
=63	=63	=63	=63	=63	=63	=63	=63	=63	=63	=63	=63	=63	=63	=63	=63	=63	=63	=63	=63
!LO:TX:t=P:problem=mixed beam	!	!	!	!	!	!	!	!	!	!	!	!	!	!	!	!	!	!	!
8F#\L	6	.	.	.	2ryy	1r	.	.	.	16f#\LL	.	16dd\LL	.	.	.	.	.	2ryy	2ryy
.	.	.	.	.	.	.	.	.	.	16g\JJ	.	16ee\JJ	.	.	.	.	.	.	.
8D\	.	.	.	.	.	.	.	.	.	16a\LL	-men	16ff#\LL	-men	.	.	.	.	.	.
.	.	.	.	.	.	.	.	.	.	16f#\JJ	.	16dd\JJ	.	.	.	.	.	.	.
!	!	!	!	!	!	!	!	!	!	!LO:LB:g=original	!	!	!	!	!	!	!	!	!
8E\	7	.	.	.	.	.	.	.	.	8g\	Do-	8.cc#X\	Do-	.	.	.	.	.	.
8AA/J	7 #	.	.	.	.	.	.	.	.	8e\	-mi-	.	.	.	.	.	.	.	.
.	.	.	.	.	.	.	.	.	.	.	.	32b\LLL	-mi-	.	.	.	.	.	.
.	.	.	.	.	.	.	.	.	.	.	.	32cc#\JJJ	.	.	.	.	.	.	.
!LO:LB:g=original	!	!	!	!	!	!	!	!	!	!	!	!LO:LB:g=original	!	!	!	!	!	!	!
=64	=64	=64	=64	=64	=64	=64	=64	=64	=64	=64	=64	=64	=64	=64	=64	=64	=64	=64	=64
4D\	.	.	.	.	2ryy	.	.	.	.	8f#\	-ni	8dd\	-ni	0r	.	0r	.	2ryy	2ryy
!	!	!	!	!	!	!	!	!	!	!	!	!LO:SIC:v:s=16cc#\LL	!	!	!	!	!	!	!
.	.	.	.	.	.	.	.	.	.	16e\LL	lau-	16cc\LL	lau-	.	.	.	.	.	.
.	.	.	.	.	.	.	.	.	.	16f#\JJ	.	16dd\JJ	.	.	.	.	.	.	.
8r	.	.	.	.	.	.	.	.	.	[<4g\	-da-	[<4ee\	-da-	.	.	.	.	.	.
8AA/	7_ 5_	.	.	.	.	.	.	.	.	.	.	.	.	.	.	.	.	.	.
=65	=65	=65	=65	=65	=65	=65	=65	=65	=65	=65	=65	=65	=65	=65	=65	=65	=65	=65	=65
!	!	!	!	!	!	!	!	!	!	!LO:N:xstem:cue	!	!LO:N:xstem:cue	!	!	!	!	!	!	!
4D\	.	.	.	.	2ryy	2r	.	0r	.	8g\]	.	8ee\]	.	.	.	.	.	2ryy	2ryy
.	x	.	.	.	.	.	.	.	.	16f#\LL	.	16dd\LL	.	.	.	.	.	.	.
.	.	.	.	.	.	.	.	.	.	16g\JJ	.	16ee\JJ	.	.	.	.	.	.	.
8r	.	.	.	.	.	.	.	.	.	[<4a\	.	[<4ff#\	.	.	.	.	.	.	.
8d\	3	.	.	.	.	.	.	.	.	.	.	.	.	.	.	.	.	.	.
!	!	!	!	!	!	!LO:LB:g=original	!	!	!	!	!	!	!	!	!	!	!	!	!
=66	=66	=66	=66	=66	=66	=66	=66	=66	=66	=66	=66	=66	=66	=66	=66	=66	=66	=66	=66
!	!	!	!	!	!	!	!	!	!	!LO:N:xstem:cue	!	!LO:N:xstem:cue	!	!	!	!	!	!	!
8D\L	.	.	8r	.	2ryy	8r	.	.	.	8a\]	.	8ff#\]	.	.	.	.	.	2ryy	2ryy
8D\	.	.	8f#/L	.	.	8D\	lau-	.	.	16b\LL	.	16gg\LL	.	.	.	.	.	.	.
.	.	.	.	.	.	.	.	.	.	16a\JJ	.	16ff#\JJ	.	.	.	.	.	.	.
8G\	6	.	8e/	.	.	8G\	-da-	.	.	8g\	-bi-	8ee\	-bi-	.	.	.	.	.	.
8G#X\J	5	.	8d/J	.	.	8G#X\	-te	.	.	8f#\	-le	8dd\	-le	.	.	.	.	.	.
!	!	!	!	!	!	!	!	!	!	!	!	!LO:LB:g=original	!	!	!	!	!	!	!
=67	=67	=67	=67	=67	=67	=67	=67	=67	=67	=67	=67	=67	=67	=67	=67	=67	=67	=67	=67
8A\L	#_	.	4c#X/	.	2ryy	8A\L	no-	.	.	8e\L	No-	8.cc#X\L	no-	.	.	.	.	2ryy	2ryy
8Gn\	.	.	.	.	.	8Gn\J	.	.	.	16d\L	.	.	.	.	.	.	.	.	.
.	.	.	.	.	.	.	.	.	.	16e\JJ	.	32b\LL	.	.	.	.	.	.	.
.	.	.	.	.	.	.	.	.	.	.	.	32cc#\JJJ	.	.	.	.	.	.	.
8F#\	6	.	8d/L	.	.	8F#\L	-men	.	.	8f#\	.	8dd\	.	.	.	.	.	.	.
8C#X\J	6 5	.	8e/J	.	.	8C#X\J	.	.	.	8g\	-men	8ee\	-men	.	.	.	.	.	.
!	!	!	!LO:LB:g=original	!	!	!	!	!	!	!	!	!	!	!	!	!	!	!	!
=68	=68	=68	=68	=68	=68	=68	=68	=68	=68	=68	=68	=68	=68	=68	=68	=68	=68	=68	=68
8D\L	.	.	4.d/	.	2ryy	8D\L	Do-	.	.	4f#\	Do-	4.dd\	Do-	1r	.	1r	.	2ryy	2ryy
8B\	.	.	.	.	.	8B\J	.	.	.	.	.	.	.	.	.	.	.	.	.
8G\	6 5	.	.	.	.	8G\	.	.	.	4e\	-mi-	.	.	.	.	.	.	.	.
8A\J	#	.	8c#X/	.	.	8A\	-mi-	.	.	.	.	8cc#X\	-mi-	.	.	.	.	.	.
=69	=69	=69	=69	=69	=69	=69	=69	=69	=69	=69	=69	=69	=69	=69	=69	=69	=69	=69	=69
4D\	.	.	16d/LL	.	2ryy	4D\	-ni	2r	.	4f#\	-ni	4dd\	-ni	.	.	.	.	2ryy	2ryy
.	.	.	16f#/	.	.	.	.	.	.	.	.	.	.	.	.	.	.	.	.
.	.	.	16g/	.	.	.	.	.	.	.	.	.	.	.	.	.	.	.	.
.	.	.	16a/JJ	.	.	.	.	.	.	.	.	.	.	.	.	.	.	.	.
!	!	!	!	!LO:DY:a	!	!	!	!	!	!	!	!	!	!	!	!	!	!	!
4r	.	.	16b\LL	f	.	4r	.	.	.	4r	.	4r	.	.	.	.	.	.	.
.	.	.	16cc#X\	.	.	.	.	.	.	.	.	.	.	.	.	.	.	.	.
.	.	.	16dd\	.	.	.	.	.	.	.	.	.	.	.	.	.	.	.	.
.	.	.	16ee\JJ	.	.	.	.	.	.	.	.	.	.	.	.	.	.	.	.
!	!	!	!	!	!	!	!	!	!	!LO:LB:g=original	!	!	!	!LO:LB:g=original	!	!	!	!	!
=70	=70	=70	=70	=70	=70	=70	=70	=70	=70	=70	=70	=70	=70	=70	=70	=70	=70	=70	=70
!LO:TX:a:i:t=tutti	!	!	!LO:TX:t=P:problem=mixed beam	!	!	!	!	!	!	!	!	!	!	!	!	!	!	!	!
8D\L	.	.	8ff#\L	.	2ryy	4D\	Ex-	4A\	Ex-	4f#\	Ex-	4dd\	Ex-	2d/	.	2a\	.	2ryy	2ryy
8D\	.	.	8f#/	.	.	.	.	.	.	.	.	.	.	.	.	.	.	.	.
8D\	.	.	8f#/	.	.	8D\	-cel-	8A\	-cel-	8f#\	-cel-	8dd\	-cel-	.	.	.	.	.	.
8D\J	.	.	8f#/J	.	.	8D\	-sus	8A\	-sus	8f#\	-sus	8dd\	-sus	.	.	.	.	.	.
=71	=71	=71	=71	=71	=71	=71	=71	=71	=71	=71	=71	=71	=71	=71	=71	=71	=71	=71	=71
*tremolo	*	*	*tremolo	*	*	*	*	*	*	*	*	*	*	*	*	*	*	*	*
8E\L	6| 3	.	8g/L	.	2ryy	4E\	ſu-	4A\	ſu-	4g\	ſu-	4cc#X\	ſu-	2a\	.	2a\	.	2ryy	2ryy
8E\	.	.	8g/	.	.	.	.	.	.	.	.	.	.	.	.	.	.	.	.
8E\	.	.	8g/	.	.	4E\	-per	4A\	-per	4g\	-per	4cc#\	-per	.	.	.	.	.	.
8E\J	.	.	8g/J	.	.	.	.	.	.	.	.	.	.	.	.	.	.	.	.
=72	=72	=72	=72	=72	=72	=72	=72	=72	=72	=72	=72	=72	=72	=72	=72	=72	=72	=72	=72
!	!	!	!	!	!	!	!	!	!	!	!	!LO:SIC:v:s=4cc#\	!	!	!	!	!	!	!
8AA/L	#	.	8e/L	.	2ryy	4A\	om-	4A\	om-	4e\	om-	4cc\	om-	2a\	.	2a\	.	2ryy	2ryy
8AA/	.	.	8e/	.	.	.	.	.	.	.	.	.	.	.	.	.	.	.	.
!	!	!	!	!	!	!	!	!	!	!	!	!LO:SIC:v:s=4cc#\	!	!	!	!	!	!	!
8AA/	.	.	8e/	.	.	4A\	-nes	4A\	-nes	4e\	-nes	4cc\	-nes	.	.	.	.	.	.
8AA/J	.	.	8e/J	.	.	.	.	.	.	.	.	.	.	.	.	.	.	.	.
!	!	!	!	!	!	!LO:LB:g=original	!	!	!	!	!	!	!	!	!	!	!	!	!
*Xtremolo	*	*	*Xtremolo	*	*	*	*	*	*	*	*	*	*	*	*	*	*	*	*
!LO:LB:g=original	!	!	!	!	!	!	!	!	!	!	!	!	!	!	!	!LO:LB:g=original	!	!	!
=73	=73	=73	=73	=73	=73	=73	=73	=73	=73	=73	=73	=73	=73	=73	=73	=73	=73	=73	=73
8D\L	.	.	8f#/L	.	2ryy	4D\	gen-	4A\	gen-	4f#\	gen-	4dd\	gen-	2d/	.	2a\	.	2ryy	2ryy
8D\	.	.	8f#/	.	.	.	.	.	.	.	.	.	.	.	.	.	.	.	.
8F#\	6	.	8a/	.	.	4F#\	-tes	4A\	-tes	4a\	-tes	4dd\	-tes	.	.	.	.	.	.
8F#\J	.	.	8a/J	.	.	.	.	.	.	.	.	.	.	.	.	.	.	.	.
!	!	!	!	!	!	!	!	!LO:LB:g=original	!	!	!	!	!	!	!	!	!	!	!
=74	=74	=74	=74	=74	=74	=74	=74	=74	=74	=74	=74	=74	=74	=74	=74	=74	=74	=74	=74
*	*	*	*2\right	*	*	*	*	*	*	*	*	*	*	*	*	*	*	*	*
*tremolo	*	*	*tremolo	*	*	*	*	*	*	*	*	*	*	*	*	*	*	*	*
8G\L	6	.	8b\L	.	2ryy	4G\	ſu-	4G/	ſu-	4b\	ſu-	4ee\	ſu-	2g\	.	2b\	.	2ryy	2ryy
8G\	.	.	8b\	.	.	.	.	.	.	.	.	.	.	.	.	.	.	.	.
8G\	.	.	8b\	.	.	4G\	-per	4G/	-per	4b\	-per	4ee\	-per	.	.	.	.	.	.
8G\J	.	.	8b\J	.	.	.	.	.	.	.	.	.	.	.	.	.	.	.	.
!	!	!	!	!	!	!	!	!	!	!	!	!LO:LB:g=original	!	!	!	!	!	!	!
=75	=75	=75	=75	=75	=75	=75	=75	=75	=75	=75	=75	=75	=75	=75	=75	=75	=75	=75	=75
8F#\L	6	.	8a/L	.	2ryy	4F#\	om-	4A\	om-	4a\	om-	4dd\	om-	2d/	.	2a\	.	2ryy	2ryy
8F#\	.	.	8a/	.	.	.	.	.	.	.	.	.	.	.	.	.	.	.	.
8F#\	.	.	8a/	.	.	4F#\	-nes	4A\	-nes	4a\	-nes	4dd\	-nes	.	.	.	.	.	.
8F#\J	.	.	8a/J	.	.	.	.	.	.	.	.	.	.	.	.	.	.	.	.
*Xtremolo	*	*	*	*	*	*	*	*	*	*	*	*	*	*	*	*	*	*	*
=76	=76	=76	=76	=76	=76	=76	=76	=76	=76	=76	=76	=76	=76	=76	=76	=76	=76	=76	=76
8G\L	6_	.	8b/L	.	2ryy	4.G\	gen-	4B\	gen-	4.g\	gen-	4.ee\	gen-	4g\	.	4b\	.	2ryy	2ryy
8G\	.	.	8b/	.	.	.	.	.	.	.	.	.	.	.	.	.	.	.	.
8G\	x	.	8b/	.	.	.	.	4B\	-tes	.	.	.	.	4r	.	4r	.	.	.
8G#X\J	5	.	8b/J	.	.	8G#X\	-tes	.	.	8f#\	-tes	8dd\	-tes	.	.	.	.	.	.
*	*	*	*Xtremolo	*	*	*	*	*	*	*	*	*	*	*	*	*	*	*	*
=77	=77	=77	=77	=77	=77	=77	=77	=77	=77	=77	=77	=77	=77	=77	=77	=77	=77	=77	=77
!LO:TX:t=P:problem=mixed beam	!	!	!	!	!	!	!	!	!	!	!	!	!	!	!	!	!	!	!
8A\L	4	.	8.f#/L	.	2ryy	8.A\	Do-	8.A\	Do-	8.f#\	Do-	8.dd\	Do-	8a\L	.	8g\L	.	2ryy	2ryy
8A\	.	.	.	.	.	.	.	.	.	.	.	.	.	8a\	.	8a\	.	.	.
.	.	.	32e/LL	.	.	16A\	-mi-	16A\	-mi-	16f#\	-mi-	16dd\	-mi-	.	.	.	.	.	.
.	.	.	32f#/JJJ	.	.	.	.	.	.	.	.	.	.	.	.	.	.	.	.
!	!	!	!LO:LB:g=original	!	!	!	!	!	!	!	!	!	!	!	!	!	!	!	!
8AA/J	#	.	16e/LL	.	.	8A\	-nus	8A\	-nus	8e\	-nus	8cc#X\	-nus	8a\J	.	8a\J	.	.	.
.	.	.	16A/	.	.	.	.	.	.	.	.	.	.	.	.	.	.	.	.
8r	.	.	16c#X/	.	.	8r	.	8r	.	8r	.	8r	.	8r	.	8r	.	.	.
.	.	.	16e/JJ	.	.	.	.	.	.	.	.	.	.	.	.	.	.	.	.
!	!	!	!	!	!	!	!	!	!	!LO:LB:g=original	!	!	!	!	!	!	!	!	!
=78	=78	=78	=78	=78	=78	=78	=78	=78	=78	=78	=78	=78	=78	=78	=78	=78	=78	=78	=78
8C#X/L	6 5	.	16g/LL	.	2ryy	4C#X/	&	4A\	&	4g\	&	4ee\	&	2a\	.	2a\	.	2ryy	2ryy
.	.	.	16e/	.	.	.	.	.	.	.	.	.	.	.	.	.	.	.	.
8C#/	.	.	16a/	.	.	.	.	.	.	.	.	.	.	.	.	.	.	.	.
.	.	.	16g/JJ	.	.	.	.	.	.	.	.	.	.	.	.	.	.	.	.
8D/	.	.	16g/LL	.	.	8D\	ſu-	8A\	ſu-	8f#\	ſu-	8dd\	ſu-	.	.	.	.	.	.
.	.	.	16f#/	.	.	.	.	.	.	.	.	.	.	.	.	.	.	.	.
8D/J	.	.	16e/	.	.	8D\	-per	8A\	-per	8f#\	-per	8dd\	-per	.	.	.	.	.	.
.	.	.	16d/JJ	.	.	.	.	.	.	.	.	.	.	.	.	.	.	.	.
=79	=79	=79	=79	=79	=79	=79	=79	=79	=79	=79	=79	=79	=79	=79	=79	=79	=79	=79	=79
8E\L	6| 3	.	16c#X/LL	.	2ryy	4E\	Cae-	4A\	Cae-	4g\	Cae-	4cc#X\	Cae-	2a\	.	2a\	.	2ryy	2ryy
.	.	.	16d/	.	.	.	.	.	.	.	.	.	.	.	.	.	.	.	.
8E\	.	.	16e/	.	.	.	.	.	.	.	.	.	.	.	.	.	.	.	.
.	.	.	16c#/JJ	.	.	.	.	.	.	.	.	.	.	.	.	.	.	.	.
8F#\	6 3	.	16d/LL	.	.	4F#\	-los	4A\	-los	4a\	-los	4dd\	-los	.	.	.	.	.	.
.	.	.	16A/	.	.	.	.	.	.	.	.	.	.	.	.	.	.	.	.
8F#\J	.	.	16f#/	.	.	.	.	.	.	.	.	.	.	.	.	.	.	.	.
.	.	.	16d/JJ	.	.	.	.	.	.	.	.	.	.	.	.	.	.	.	.
!	!	!	!	!	!	!LO:LB:g=original	!	!	!	!	!	!LO:LB:g=original	!	!	!	!	!	!	!
=80	=80	=80	=80	=80	=80	=80	=80	=80	=80	=80	=80	=80	=80	=80	=80	=80	=80	=80	=80
8C#X/L	6 5	.	16g/LL	.	2ryy	4C#X/	Glo-	4A\	Glo-	4g\	Glo-	4ee\	Glo-	2a\	.	2a\	.	2ryy	2ryy
.	.	.	16e/	.	.	.	.	.	.	.	.	.	.	.	.	.	.	.	.
8C#/	.	.	16a/	.	.	.	.	.	.	.	.	.	.	.	.	.	.	.	.
.	.	.	16g/JJ	.	.	.	.	.	.	.	.	.	.	.	.	.	.	.	.
8D/	.	.	16g/LL	.	.	8D\	-ri-	8A\	-ri-	8f#\	-ri-	8dd\	-ri-	.	.	.	.	.	.
.	.	.	16f#/	.	.	.	.	.	.	.	.	.	.	.	.	.	.	.	.
8D/J	.	.	16e/	.	.	8D\	-a	8A\	-a	8f#\	-a	8dd\	-a	.	.	.	.	.	.
.	.	.	16d/JJ	.	.	.	.	.	.	.	.	.	.	.	.	.	.	.	.
!	!	!	!	!	!	!	!	!LO:LB:g=original	!	!	!	!	!	!	!	!	!	!	!
=81	=81	=81	=81	=81	=81	=81	=81	=81	=81	=81	=81	=81	=81	=81	=81	=81	=81	=81	=81
8E\L	6| 3	.	16c#X/LL	.	2ryy	4E\	e-	4A\	e-	4g\	e-	4cc#X\	e-	2a\	.	2a\	.	2ryy	2ryy
.	.	.	16d/	.	.	.	.	.	.	.	.	.	.	.	.	.	.	.	.
8E\	.	.	16e/	.	.	.	.	.	.	.	.	.	.	.	.	.	.	.	.
.	.	.	16c#/JJ	.	.	.	.	.	.	.	.	.	.	.	.	.	.	.	.
8F#\	6 3	.	16d/LL	.	.	4F#\	-jus	4A\	-jus	4a\	-jus	4dd\	-jus	.	.	.	.	.	.
.	.	.	16A/	.	.	.	.	.	.	.	.	.	.	.	.	.	.	.	.
8F#\J	.	.	16f#/	.	.	.	.	.	.	.	.	.	.	.	.	.	.	.	.
.	.	.	16d/JJ	.	.	.	.	.	.	.	.	.	.	.	.	.	.	.	.
!LO:LB:g=original	!	!	!	!	!	!	!	!	!	!	!	!	!	!	!	!	!	!	!
=82	=82	=82	=82	=82	=82	=82	=82	=82	=82	=82	=82	=82	=82	=82	=82	=82	=82	=82	=82
8.G\L	4#r_ 2_	.	8.c#X/L	.	2ryy	8.G\	Glo-	8.e\	Glo-	8.a\	Glo-	8.cc#X\	Glo-	8a\L	.	8a\L	.	2ryy	2ryy
.	.	.	.	.	.	.	.	.	.	.	.	.	.	8a\	.	8a\	.	.	.
32A\LL	.	.	32B/LL	.	.	16G\	-ri-	16e\	-ri-	16a\	-ri-	16cc#\	-ri-	.	.	.	.	.	.
32G\JJJ	x x	.	32c#/JJJ	.	.	.	.	.	.	.	.	.	.	.	.	.	.	.	.
8F#\	6	.	16d/LL	.	.	8F#\	-a	8d\	-a	8a\	-a	8dd\	-a	8d\J	.	8a\J	.	.	.
.	.	.	16e/	.	.	.	.	.	.	.	.	.	.	.	.	.	.	.	.
8r	.	.	16f#/	.	.	8r	.	8r	.	8r	.	8r	.	8r	.	8r	.	.	.
.	.	.	16d/JJ	.	.	.	.	.	.	.	.	.	.	.	.	.	.	.	.
!	!	!	!LO:LB:g=original	!	!	!	!	!	!	!	!	!	!	!LO:LB:g=original	!	!	!	!	!
=83	=83	=83	=83	=83	=83	=83	=83	=83	=83	=83	=83	=83	=83	=83	=83	=83	=83	=83	=83
*	*	*	*	*	*	*	*ij	*	*ij	*	*ij	*	*ij	*	*	*	*	*	*
8.C#X/L	6_ 5_	.	8.g/L	.	2ryy	8.C#X/	Glo-	8.g\	Glo-	8.a\	Glo-	8.ee\	Glo-	8a\L	.	8a\L	.	2ryy	2ryy
.	.	.	.	.	.	.	.	.	.	.	.	.	.	8a\	.	8a\	.	.	.
32BB/LL	.	.	32a/LL	.	.	16C#/	-ri-	16g\	-ri-	16a\	-ri-	16ee\	-ri-	.	.	.	.	.	.
32C#/JJJ	x x	.	32g/JJJ	.	.	.	.	.	.	.	.	.	.	.	.	.	.	.	.
8D\	.	.	16f#/LL	.	.	8D\	-a	8f#\	-a	8a\	-a	8dd\	-a	8d\J	.	8a\J	.	.	.
*	*	*	*	*	*	*	*Xij	*	*Xij	*	*Xij	*	*Xij	*	*	*	*	*	*
.	.	.	16a/	.	.	.	.	.	.	.	.	.	.	.	.	.	.	.	.
8r	.	.	16d/	.	.	8r	.	8r	.	8r	.	8r	.	8r	.	8r	.	.	.
.	.	.	16f#/JJ	.	.	.	.	.	.	.	.	.	.	.	.	.	.	.	.
!	!	!	!	!	!	!	!	!	!	!LO:LB:g=original	!	!	!	!	!	!	!	!	!
=84	=84	=84	=84	=84	=84	=84	=84	=84	=84	=84	=84	=84	=84	=84	=84	=84	=84	=84	=84
!LO:TX:t=P:problem=mixed beam	!	!	!	!	!	!	!	!	!	!	!	!	!	!	!	!	!	!	!
8G\L	6	.	16e/LL	.	2ryy	4G\	e-	4B\	e-	4g\	e-	4ee\	e-	4g\	.	4b\	.	2ryy	2ryy
.	.	.	16g/	.	.	.	.	.	.	.	.	.	.	.	.	.	.	.	.
8G\	.	.	16b/	.	.	.	.	.	.	.	.	.	.	.	.	.	.	.	.
.	.	.	16g/JJ	.	.	.	.	.	.	.	.	.	.	.	.	.	.	.	.
!	!	!	!	!	!	!LO:TX:t=P:problem=mixed beam	!	!	!	!	!	!	!	!	!	!	!	!	!
8A\	4	.	16g/LL	.	.	8A\L	.	4A\	.	8f#\L	.	8dd\L	.	4a\	.	4a\	.	.	.
.	.	.	16f#/	.	.	.	.	.	.	.	.	.	.	.	.	.	.	.	.
8AA/J	#	.	16e/	.	.	8AA/J	.	.	.	8e\J	.	8cc#X\J	.	.	.	.	.	.	.
.	.	.	16d/JJ	.	.	.	.	.	.	.	.	.	.	.	.	.	.	.	.
!	!	!	!	!	!	!	!	!	!	!	!	!	!	!	!	!LO:LB:g=original	!	!	!
=85	=85	=85	=85	=85	=85	=85	=85	=85	=85	=85	=85	=85	=85	=85	=85	=85	=85	=85	=85
8D\	.	.	(32f#\LLL	.	2ryy	4D\	-jus	4A\	-jus	4f#\	-jus	4dd\	-jus	4d/	.	4a\	.	2ryy	2ryy
.	.	.	32a\	.	.	.	.	.	.	.	.	.	.	.	.	.	.	.	.
.	.	.	32b\	.	.	.	.	.	.	.	.	.	.	.	.	.	.	.	.
.	.	.	32cc#X\	.	.	.	.	.	.	.	.	.	.	.	.	.	.	.	.
8r	.	.	32dd\	.	.	.	.	.	.	.	.	.	.	.	.	.	.	.	.
.	.	.	32ee\	.	.	.	.	.	.	.	.	.	.	.	.	.	.	.	.
.	.	.	32ff#\)	.	.	.	.	.	.	.	.	.	.	.	.	.	.	.	.
.	.	.	32gg\JJJ	.	.	.	.	.	.	.	.	.	.	.	.	.	.	.	.
16A'\LL	.	.	16aa'\LL	.	.	4r	.	4r	.	4r	.	4r	.	4r	.	4r	.	.	.
16F#'\	.	.	16ff#'\	.	.	.	.	.	.	.	.	.	.	.	.	.	.	.	.
16A'\	.	.	16aa'\	.	.	.	.	.	.	.	.	.	.	.	.	.	.	.	.
16F#'\JJ	.	.	16ff#'\JJ	.	.	.	.	.	.	.	.	.	.	.	.	.	.	.	.
!	!	!	!	!	!	!LO:LB:g=original	!	!	!	!	!	!LO:LB:g=original	!	!	!	!	!	!	!
=86	=86	=86	=86	=86	=86	=86	=86	=86	=86	=86	=86	=86	=86	=86	=86	=86	=86	=86	=86
8D'\	.	.	32dd/LLL	.	2ryy	0r	.	0r	.	0r	.	0r	.	1r	.	1r	.	2ryy	2ryy
.	.	.	32f#/	.	.	.	.	.	.	.	.	.	.	.	.	.	.	.	.
.	.	.	32g/	.	.	.	.	.	.	.	.	.	.	.	.	.	.	.	.
.	.	.	(32a/	.	.	.	.	.	.	.	.	.	.	.	.	.	.	.	.
8r	.	.	32b/	.	.	.	.	.	.	.	.	.	.	.	.	.	.	.	.
.	.	.	32cc#X/	.	.	.	.	.	.	.	.	.	.	.	.	.	.	.	.
.	.	.	32dd/	.	.	.	.	.	.	.	.	.	.	.	.	.	.	.	.
.	.	.	32ee/JJJ)	.	.	.	.	.	.	.	.	.	.	.	.	.	.	.	.
16F#'\LL	.	.	16ff#'\LL	.	.	.	.	.	.	.	.	.	.	.	.	.	.	.	.
16D'\	.	.	16dd'\	.	.	.	.	.	.	.	.	.	.	.	.	.	.	.	.
16F#'\	.	.	16ff#'\	.	.	.	.	.	.	.	.	.	.	.	.	.	.	.	.
16D'\JJ	.	.	16dd'\JJ	.	.	.	.	.	.	.	.	.	.	.	.	.	.	.	.
=87	=87	=87	=87	=87	=87	=87	=87	=87	=87	=87	=87	=87	=87	=87	=87	=87	=87	=87	=87
8BB'/	.	.	32b/LLL	.	2ryy	.	.	.	.	.	.	.	.	.	.	.	.	2ryy	2ryy
.	.	.	(32d/	.	.	.	.	.	.	.	.	.	.	.	.	.	.	.	.
.	.	.	32e/	.	.	.	.	.	.	.	.	.	.	.	.	.	.	.	.
.	.	.	32f#/JJJ)	.	.	.	.	.	.	.	.	.	.	.	.	.	.	.	.
!	!	!	!LO:LB:g=original	!	!	!	!	!	!	!	!	!	!	!	!	!	!	!	!
8r	.	.	32g/LLL	.	.	.	.	.	.	.	.	.	.	.	.	.	.	.	.
.	.	.	(32a/	.	.	.	.	.	.	.	.	.	.	.	.	.	.	.	.
.	.	.	32b/	.	.	.	.	.	.	.	.	.	.	.	.	.	.	.	.
!	!	!	!LO:SIC:v:s=32cc#/JJJ)	!	!	!	!	!	!	!	!	!	!	!	!	!	!	!	!
.	.	.	32cc/JJJ)	.	.	.	.	.	.	.	.	.	.	.	.	.	.	.	.
16d'\LL	.	.	16dd'\LL	.	.	.	.	.	.	.	.	.	.	.	.	.	.	.	.
16B'\	.	.	16b'\	.	.	.	.	.	.	.	.	.	.	.	.	.	.	.	.
16d'\	.	.	16dd'\	.	.	.	.	.	.	.	.	.	.	.	.	.	.	.	.
16B'\JJ	.	.	16b'\JJ	.	.	.	.	.	.	.	.	.	.	.	.	.	.	.	.
!LO:LB:g=original	!	!	!	!	!	!	!	!	!	!	!	!	!	!	!	!	!	!	!
=88	=88	=88	=88	=88	=88	=88	=88	=88	=88	=88	=88	=88	=88	=88	=88	=88	=88	=88	=88
(16A\LL	.	.	16a/LL	.	2ryy	.	.	.	.	.	.	.	.	2r	.	2r	.	2ryy	2ryy
16G#X\)	.	.	(16g#X/	.	.	.	.	.	.	.	.	.	.	.	.	.	.	.	.
16B'\	.	.	16b/)	.	.	.	.	.	.	.	.	.	.	.	.	.	.	.	.
16G#'\JJ	.	.	16g#'/JJ	.	.	.	.	.	.	.	.	.	.	.	.	.	.	.	.
(16A\LL	.	.	16a'/LL	.	.	.	.	.	.	.	.	.	.	.	.	.	.	.	.
16G#\)	.	.	16g#'/	.	.	.	.	.	.	.	.	.	.	.	.	.	.	.	.
16B'\	.	.	16b'/	.	.	.	.	.	.	.	.	.	.	.	.	.	.	.	.
16G#'\JJ	.	.	16g#'/JJ	.	.	.	.	.	.	.	.	.	.	.	.	.	.	.	.
=89	=89	=89	=89	=89	=89	=89	=89	=89	=89	=89	=89	=89	=89	=89	=89	=89	=89	=89	=89
8A'\	.	.	8a\L	.	2ryy	.	.	.	.	.	.	.	.	4r	.	4r	.	2ryy	2ryy
8r	.	.	(32a\LL	.	.	.	.	.	.	.	.	.	.	.	.	.	.	.	.
.	.	.	32b\	.	.	.	.	.	.	.	.	.	.	.	.	.	.	.	.
!	!	!	!LO:SIC:v:s=32cc#\)	!	!	!	!	!	!	!	!	!	!	!	!	!	!	!	!
.	.	.	32cc\)	.	.	.	.	.	.	.	.	.	.	.	.	.	.	.	.
.	.	.	32dd\JJJ	.	.	.	.	.	.	.	.	.	.	.	.	.	.	.	.
8AA/L	7_ 5_	.	8ee'\L	.	.	.	.	.	.	.	.	.	.	8a\L	.	8a\L	.	.	.
8AA/J	.	.	8ee'\J	.	.	.	.	.	.	.	.	.	.	8a\J	.	8a\J	.	.	.
=90	=90	=90	=90	=90	=90	=90	=90	=90	=90	=90	=90	=90	=90	=90	=90	=90	=90	=90	=90
!	!	!	!	!	!	!	!	!LO:TX:a:i:t=Solo&colon;	!	!LO:TX:b:i:t=Verte Solo	!	!	!	!	!	!	!	!	!
4AA/	x x	.	4ee'\	.	2ryy	0r	.	2r	.	2r	.	0r	.	4a\	.	4a\	.	2ryy	2ryy
4r	.	.	4r	.	.	.	.	.	.	.	.	.	.	4r	.	4r	.	.	.
!	!	!	!	!	!	!	!	!	!	!LO:PB:g=original	!	!	!	!	!	!	!	!	!
=91	=91	=91	=91	=91	=91	=91	=91	=91	=91	=91	=91	=91	=91	=91	=91	=91	=91	=91	=91
!	!	!LO:DY:a:t=pio&colon;	!	!LO:DY:a	!	!	!	!	!	!LO:TX:a:i:t=Solo&colon;	!	!	!	!	!	!LO:TX:a:t=25	!	!	!
8D\	.	p	8r	p	2ryy	.	.	4f#\	quis	4a\	quis	.	.	0r	.	0r	.	2ryy	2ryy
8r	.	.	8f#/	.	.	.	.	.	.	.	.	.	.	.	.	.	.	.	.
8D\	.	.	8r	.	.	.	.	16f#\LL	ſi-	16a\LL	ſi-	.	.	.	.	.	.	.	.
.	.	.	.	.	.	.	.	16g\JJ	.	16b\JJ	.	.	.	.	.	.	.	.	.
8r	.	.	8f#/	.	.	.	.	16f#\LL	-cut	16a\LL	-cut	.	.	.	.	.	.	.	.
.	.	.	.	.	.	.	.	16e\JJ	.	16g\JJ	.	.	.	.	.	.	.	.	.
!	!	!	!	!	!	!	!	!LO:LB:g=original	!	!	!	!	!	!	!	!	!	!	!
=92	=92	=92	=92	=92	=92	=92	=92	=92	=92	=92	=92	=92	=92	=92	=92	=92	=92	=92	=92
8D\	.	.	8r	.	2ryy	.	.	4d\	Do-	4f#\	Do-	.	.	.	.	.	.	2ryy	2ryy
8r	.	.	8f#/	.	.	.	.	.	.	.	.	.	.	.	.	.	.	.	.
8D\	.	.	8r	.	.	.	.	16d\LL	-mi-	16f#\LL	-mi-	.	.	.	.	.	.	.	.
!	!	!	!	!	!	!	!	!LO:SIC:v:s=16c#\JJ	!	!	!	!	!	!	!	!	!	!	!
.	.	.	.	.	.	.	.	16c\JJ	.	16e\JJ	.	.	.	.	.	.	.	.	.
8r	.	.	8f#/	.	.	.	.	16d\LL	-nus	16f#\LL	-nus	.	.	.	.	.	.	.	.
.	.	.	.	.	.	.	.	16e\JJ	.	16g\JJ	.	.	.	.	.	.	.	.	.
=93	=93	=93	=93	=93	=93	=93	=93	=93	=93	=93	=93	=93	=93	=93	=93	=93	=93	=93	=93
8D\	.	.	8r	.	2ryy	.	.	[4f#\	De-	[4a\	De-	.	.	.	.	.	.	2ryy	2ryy
8r	.	.	8f#/	.	.	.	.	.	.	.	.	.	.	.	.	.	.	.	.
!	!	!	!LO:LB:g=original	!	!	!	!	!	!	!	!	!	!	!	!	!	!	!	!
8D\	.	.	8r	.	.	.	.	16f#\LL]	.	16a\LL]	.	.	.	.	.	.	.	.	.
.	.	.	.	.	.	.	.	16g\JJ	.	16b\JJ	.	.	.	.	.	.	.	.	.
8r	.	.	8f#/	.	.	.	.	16f#\LL	-us	16a\LL	-us	.	.	.	.	.	.	.	.
.	.	.	.	.	.	.	.	16e\JJ	.	16g\JJ	.	.	.	.	.	.	.	.	.
=94	=94	=94	=94	=94	=94	=94	=94	=94	=94	=94	=94	=94	=94	=94	=94	=94	=94	=94	=94
8D\	.	.	8r	.	2ryy	0r	.	[4d\	No-	[4f#\	No-	0r	.	.	.	.	.	2ryy	2ryy
8r	.	.	8f#/	.	.	.	.	.	.	.	.	.	.	.	.	.	.	.	.
8D\	.	.	8r	.	.	.	.	16d\LL]	.	16f#\LL]	.	.	.	.	.	.	.	.	.
.	.	.	.	.	.	.	.	16c#X\JJ	.	16e\JJ	.	.	.	.	.	.	.	.	.
8r	.	.	8f#/	.	.	.	.	16d\LL	-ſter	16f#\LL	-ſter	.	.	.	.	.	.	.	.
.	.	.	.	.	.	.	.	16e\JJ	.	16g\JJ	.	.	.	.	.	.	.	.	.
!LO:LB:g=original	!	!	!	!	!	!	!	!	!	!	!	!	!	!	!	!	!	!	!
=95	=95	=95	=95	=95	=95	=95	=95	=95	=95	=95	=95	=95	=95	=95	=95	=95	=95	=95	=95
8D\	.	.	8r	.	2ryy	.	.	4.f#\	qui	4.a\	qui	.	.	0r	.	0r	.	2ryy	2ryy
8r	.	.	8f#/	.	.	.	.	.	.	.	.	.	.	.	.	.	.	.	.
8D\	.	.	8r	.	.	.	.	.	.	.	.	.	.	.	.	.	.	.	.
8r	.	.	8f#/	.	.	.	.	16e\LL	in	16g\LL	in	.	.	.	.	.	.	.	.
.	.	.	.	.	.	.	.	16d\JJ	.	16f#\JJ	.	.	.	.	.	.	.	.	.
!	!	!	!LO:LB:g=original	!	!	!	!	!	!	!	!	!	!	!	!	!	!	!	!
=96	=96	=96	=96	=96	=96	=96	=96	=96	=96	=96	=96	=96	=96	=96	=96	=96	=96	=96	=96
8A\	4	.	8r	.	2ryy	.	.	4d\	al-	4f#\	al-	.	.	.	.	.	.	2ryy	2ryy
8r	.	.	8d/	.	.	.	.	.	.	.	.	.	.	.	.	.	.	.	.
8AA/	#	.	8r	.	.	.	.	8c#X\	-tis	8e\	-tis	.	.	.	.	.	.	.	.
*	*	*	*	*	*	*	*	*	*ij	*	*	*	*	*	*	*	*	*	*
8r	.	.	8c#X/	.	.	.	.	8e\	in	8g\	in	.	.	.	.	.	.	.	.
=97	=97	=97	=97	=97	=97	=97	=97	=97	=97	=97	=97	=97	=97	=97	=97	=97	=97	=97	=97
8D\	4	.	8r	.	2ryy	.	.	4e\	al-	4g\	al-	.	.	.	.	.	.	2ryy	2ryy
8r	.	.	8e/	.	.	.	.	.	.	.	.	.	.	.	.	.	.	.	.
8DD/	3	.	8r	.	.	.	.	8d\	-tis	8f#\	-tis	.	.	.	.	.	.	.	.
*	*	*	*	*	*	*	*	*	*Xij	*	*	*	*	*	*	*	*	*	*
8r	.	.	8d/	.	.	.	.	8f#\	in	8a\	in	.	.	.	.	.	.	.	.
!	!	!	!	!	!	!	!	!	!LO:LB:g=original	!	!	!	!	!	!	!	!	!	!
=98	=98	=98	=98	=98	=98	=98	=98	=98	=98	=98	=98	=98	=98	=98	=98	=98	=98	=98	=98
8D\	.	.	8r	.	2ryy	0r	.	(4f#\	al-	(4a\	al-	0r	.	.	.	.	.	2ryy	2ryy
8r	.	.	8d/	.	.	.	.	.	.	.	.	.	.	.	.	.	.	.	.
8D\	.	.	8r	.	.	.	.	16g\LL)	.	16b\LL)	.	.	.	.	.	.	.	.	.
.	.	.	.	.	.	.	.	16f#\JJ	.	16a\JJ	.	.	.	.	.	.	.	.	.
8r	.	.	8d/	.	.	.	.	16e\LL	-tis	16g\LL	-tis	.	.	.	.	.	.	.	.
.	.	.	.	.	.	.	.	16d\JJ	.	16f#\JJ	.	.	.	.	.	.	.	.	.
=99	=99	=99	=99	=99	=99	=99	=99	=99	=99	=99	=99	=99	=99	=99	=99	=99	=99	=99	=99
8A\	4	.	8r	.	2ryy	.	.	8.d\	ha-	8.f#\	ha-	.	.	0r	.	0r	.	2ryy	2ryy
8r	.	.	8d/	.	.	.	.	.	.	.	.	.	.	.	.	.	.	.	.
.	.	.	.	.	.	.	.	16d\	-bi-	16f#\	-bi-	.	.	.	.	.	.	.	.
8AA/	#	.	8r	.	.	.	.	8c#X\	-tat	8e\	-tat	.	.	.	.	.	.	.	.
8r	.	.	8c#X/	.	.	.	.	8r	.	8r	.	.	.	.	.	.	.	.	.
=100	=100	=100	=100	=100	=100	=100	=100	=100	=100	=100	=100	=100	=100	=100	=100	=100	=100	=100	=100
8A\	#	.	8r	.	2ryy	.	.	8.e\L	&	8.g\L	&	.	.	.	.	.	.	2ryy	2ryy
!	!	!	!LO:SIC:v:s=8c#/	!	!	!	!	!	!	!	!	!	!	!	!	!	!	!	!
8r	.	.	8c/	.	.	.	.	.	.	.	.	.	.	.	.	.	.	.	.
.	.	.	.	.	.	.	.	16d\Jk	.	16f#\Jk	.	.	.	.	.	.	.	.	.
8A\	.	.	8r	.	.	.	.	8c#X\	.	8e\	.	.	.	.	.	.	.	.	.
!	!	!	!LO:SIC:v:s=8c#/	!	!	!	!	!	!	!	!	!	!	!	!	!	!	!	!
8r	.	.	8c/	.	.	.	.	8c#\	hu-	8e\	hu-	.	.	.	.	.	.	.	.
!	!	!	!LO:LB:g=original	!	!	!	!	!	!	!LO:LB:g=original	!	!	!	!	!	!	!	!	!
=101	=101	=101	=101	=101	=101	=101	=101	=101	=101	=101	=101	=101	=101	=101	=101	=101	=101	=101	=101
!	!	!	!	!	!	!	!	!LO:SIC:v:s=4.c#	!	!	!	!	!	!	!	!	!	!	!
8A\	.	.	8r	.	2ryy	.	.	4.c\	-mi-	4.e\	-mi-	.	.	.	.	.	.	2ryy	2ryy
8r	.	.	8c#X/	.	.	.	.	.	.	.	.	.	.	.	.	.	.	.	.
8A\	.	.	8r	.	.	.	.	.	.	.	.	.	.	.	.	.	.	.	.
8r	.	.	8c#/	.	.	.	.	16d\LL	-li-	16f#\LL	-li-	.	.	.	.	.	.	.	.
.	.	.	.	.	.	.	.	16e\JJ	.	16g\JJ	.	.	.	.	.	.	.	.	.
!LO:LB:g=original	!	!	!	!	!	!	!	!	!	!	!	!	!	!	!	!	!	!	!
=102	=102	=102	=102	=102	=102	=102	=102	=102	=102	=102	=102	=102	=102	=102	=102	=102	=102	=102	=102
8D\	.	.	8r	.	2ryy	0r	.	8.d\L	-a	8.f#\L	-a	0r	.	.	.	.	.	2ryy	2ryy
8r	.	.	8d/	.	.	.	.	.	.	.	.	.	.	.	.	.	.	.	.
.	.	.	.	.	.	.	.	16e\Jk	.	16g\Jk	.	.	.	.	.	.	.	.	.
8D\	.	.	8r	.	.	.	.	8f#\	&	8a\	&	.	.	.	.	.	.	.	.
8r	.	.	8f#/	.	.	.	.	8f#\	hu-	8a\	hu-	.	.	.	.	.	.	.	.
!	!	!	!	!	!	!	!	!LO:LB:g=original	!	!	!	!	!	!	!	!	!	!	!
=103	=103	=103	=103	=103	=103	=103	=103	=103	=103	=103	=103	=103	=103	=103	=103	=103	=103	=103	=103
8D\	.	.	8r	.	2ryy	.	.	4.f#\	-mi-	4.a\	-mi-	.	.	0r	.	0r	.	2ryy	2ryy
8r	.	.	8f#/	.	.	.	.	.	.	.	.	.	.	.	.	.	.	.	.
8D\	.	.	8r	.	.	.	.	.	.	.	.	.	.	.	.	.	.	.	.
8r	.	.	8f#/	.	.	.	.	8d\	-li-	8f#\	-li-	.	.	.	.	.	.	.	.
=104	=104	=104	=104	=104	=104	=104	=104	=104	=104	=104	=104	=104	=104	=104	=104	=104	=104	=104	=104
8D\	6_ 4_	.	8r	.	2ryy	.	.	8.g\L	-a	8.b\L	-a	.	.	.	.	.	.	2ryy	2ryy
8r	.	.	8g/	.	.	.	.	.	.	.	.	.	.	.	.	.	.	.	.
.	.	.	.	.	.	.	.	16a\Jk	.	16cc#X\Jk	.	.	.	.	.	.	.	.	.
8D\	.	.	8r	.	.	.	.	8b\L	reſ-	8dd\L	reſ-	.	.	.	.	.	.	.	.
8r	.	.	8g/	.	.	.	.	16a\L	.	16cc#\L	.	.	.	.	.	.	.	.	.
.	.	.	.	.	.	.	.	16g\JJ	.	16b\JJ	.	.	.	.	.	.	.	.	.
=105	=105	=105	=105	=105	=105	=105	=105	=105	=105	=105	=105	=105	=105	=105	=105	=105	=105	=105	=105
8D\	.	.	8r	.	2ryy	.	.	4g\	-pi-	4b\	-pi-	.	.	.	.	.	.	2ryy	2ryy
8r	.	.	8g/	.	.	.	.	.	.	.	.	.	.	.	.	.	.	.	.
8D\	5 3	.	8r	.	.	.	.	8f#\	-cit	8a\	-cit	.	.	.	.	.	.	.	.
8r	.	.	8f#/	.	.	.	.	8f#\	in	8a\	in	.	.	.	.	.	.	.	.
=106	=106	=106	=106	=106	=106	=106	=106	=106	=106	=106	=106	=106	=106	=106	=106	=106	=106	=106	=106
8C#X/	6 5	.	8r	.	2ryy	0r	.	4e\	Cae-	8a\L	Cae-	0r	.	.	.	.	.	2ryy	2ryy
8r	.	.	8d/	.	.	.	.	.	.	8g\J	.	.	.	.	.	.	.	.	.
8D\	.	.	8r	.	.	.	.	8d\	-lo	4f#\	-lo	.	.	.	.	.	.	.	.
!LO:TX:b:i:t=Verte	!	!	!	!	!	!	!	!	!	!	!	!	!	!	!	!	!	!	!
8r	.	.	8f#/	.	.	.	.	(8d\	&	.	.	.	.	.	.	.	.	.	.
!LO:PB:g=original	!	!	!	!	!	!	!	!	!	!LO:LB:g=original	!	!	!	!	!	!	!	!	!
=107	=107	=107	=107	=107	=107	=107	=107	=107	=107	=107	=107	=107	=107	=107	=107	=107	=107	=107	=107
8G\	6	.	8r	.	2ryy	.	.	8e\)	.	8g\	&	.	.	0r	.	0r	.	2ryy	2ryy
8r	.	.	8e/L	.	.	.	.	8e\	in	(16b\LL	in	.	.	.	.	.	.	.	.
.	.	.	.	.	.	.	.	.	.	16g\JJ	.	.	.	.	.	.	.	.	.
!LO:TX:t=P:problem=mixed beam	!	!	!	!	!	!	!	!	!	!	!	!	!	!	!	!	!	!	!
8A\L	4	.	8d/	.	.	.	.	8d\L	ter-	8f#\L)	.	.	.	.	.	.	.	.	.
8AA/J	#	.	8c#X/J	.	.	.	.	8c#X\J	.	8e\J	ter-	.	.	.	.	.	.	.	.
!	!	!	!LO:LB:g=original	!	!	!	!	!	!	!	!	!	!	!	!	!	!	!	!
=108	=108	=108	=108	=108	=108	=108	=108	=108	=108	=108	=108	=108	=108	=108	=108	=108	=108	=108	=108
8D\L	.	.	8d/L	.	2ryy	.	.	4d\	-ra	4f#\	-ra	.	.	.	.	.	.	2ryy	2ryy
(32D\LL	.	.	32d/LL	.	.	.	.	.	.	.	.	.	.	.	.	.	.	.	.
32E\	.	.	(32e/	.	.	.	.	.	.	.	.	.	.	.	.	.	.	.	.
32F#\)	.	.	32f#/	.	.	.	.	.	.	.	.	.	.	.	.	.	.	.	.
32G\JJJ	.	.	32g/JJJ)	.	.	.	.	.	.	.	.	.	.	.	.	.	.	.	.
16A'\LL	.	.	16a'/LL	.	.	.	.	4r	.	4r	.	.	.	.	.	.	.	.	.
16G'\	.	.	16g'/	.	.	.	.	.	.	.	.	.	.	.	.	.	.	.	.
16F#'\	.	.	16f#'/	.	.	.	.	.	.	.	.	.	.	.	.	.	.	.	.
16E'\JJ	.	.	16e'/JJ	.	.	.	.	.	.	.	.	.	.	.	.	.	.	.	.
=109	=109	=109	=109	=109	=109	=109	=109	=109	=109	=109	=109	=109	=109	=109	=109	=109	=109	=109	=109
4D\	.	.	4d'/	.	2ryy	.	.	0r	.	0r	.	.	.	.	.	.	.	2ryy	2ryy
8r	.	.	8r	.	.	.	.	.	.	.	.	.	.	.	.	.	.	.	.
8C#X/	.	.	8c#X/	.	.	.	.	.	.	.	.	.	.	.	.	.	.	.	.
=110	=110	=110	=110	=110	=110	=110	=110	=110	=110	=110	=110	=110	=110	=110	=110	=110	=110	=110	=110
8BB/L	.	.	8B/L	.	2ryy	0r	.	.	.	.	.	0r	.	.	.	.	.	2ryy	2ryy
32BB/LL	.	.	(32B/LL	.	.	.	.	.	.	.	.	.	.	.	.	.	.	.	.
!LO:SIC:v:s=32C#/	!	!	!LO:SIC:v:s=32c#/	!	!	!	!	!	!	!	!	!	!	!	!	!	!	!	!
(32C/	.	.	32c/	.	.	.	.	.	.	.	.	.	.	.	.	.	.	.	.
32D/	.	.	32d/	.	.	.	.	.	.	.	.	.	.	.	.	.	.	.	.
32E/JJJ)	.	.	32e/JJJ)	.	.	.	.	.	.	.	.	.	.	.	.	.	.	.	.
16F#'/LL	.	.	16f#'/LL	.	.	.	.	.	.	.	.	.	.	.	.	.	.	.	.
16E'/	.	.	16e'/	.	.	.	.	.	.	.	.	.	.	.	.	.	.	.	.
16D'/	.	.	16d'/	.	.	.	.	.	.	.	.	.	.	.	.	.	.	.	.
!LO:SIC:v:s=16C#'/JJ	!	!	!LO:SIC:v:s=16c#'/JJ	!	!	!	!	!	!	!	!	!	!	!	!	!	!	!	!
16C'/JJ	.	.	16c'/JJ	.	.	.	.	.	.	.	.	.	.	.	.	.	.	.	.
=111	=111	=111	=111	=111	=111	=111	=111	=111	=111	=111	=111	=111	=111	=111	=111	=111	=111	=111	=111
4BB'/	.	.	4B'/	.	2ryy	.	.	.	.	.	.	.	.	0r	.	0r	.	2ryy	2ryy
8r	.	.	8r	.	.	.	.	.	.	.	.	.	.	.	.	.	.	.	.
8AA'/	.	.	8A/	.	.	.	.	.	.	.	.	.	.	.	.	.	.	.	.
=112	=112	=112	=112	=112	=112	=112	=112	=112	=112	=112	=112	=112	=112	=112	=112	=112	=112	=112	=112
!LO:TX:t=P:problem=mixed beam	!	!	!	!	!	!	!	!	!	!	!	!	!	!	!	!	!	!	!
8GG/L	.	.	8G/L	.	2ryy	.	.	.	.	.	.	.	.	.	.	.	.	2ryy	2ryy
(32G\LL	.	.	(32g/LL	.	.	.	.	.	.	.	.	.	.	.	.	.	.	.	.
32A\	.	.	32a/	.	.	.	.	.	.	.	.	.	.	.	.	.	.	.	.
32B\)	.	.	32b/	.	.	.	.	.	.	.	.	.	.	.	.	.	.	.	.
32c\JJJ	.	.	32cc/JJJ)	.	.	.	.	.	.	.	.	.	.	.	.	.	.	.	.
!LO:LB:g=original	!	!	!	!	!	!	!	!	!	!	!	!	!	!	!	!	!	!	!
16d\LL	.	.	16dd'\LL	.	.	.	.	.	.	.	.	.	.	.	.	.	.	.	.
16c\	.	.	16cc'\	.	.	.	.	.	.	.	.	.	.	.	.	.	.	.	.
16B\	.	.	16b'\	.	.	.	.	.	.	.	.	.	.	.	.	.	.	.	.
16A\JJ	.	.	16a'\JJ	.	.	.	.	.	.	.	.	.	.	.	.	.	.	.	.
=113	=113	=113	=113	=113	=113	=113	=113	=113	=113	=113	=113	=113	=113	=113	=113	=113	=113	=113	=113
4G\	.	.	4g/	.	2ryy	.	.	1r	.	1r	.	.	.	.	.	.	.	2ryy	2ryy
8r	.	.	8r	.	.	.	.	.	.	.	.	.	.	.	.	.	.	.	.
8G#X\	6 5	.	8g#X/	.	.	.	.	.	.	.	.	.	.	.	.	.	.	.	.
!	!	!	!LO:LB:g=original	!	!	!	!	!	!	!	!	!	!	!	!	!	!	!	!
=114	=114	=114	=114	=114	=114	=114	=114	=114	=114	=114	=114	=114	=114	=114	=114	=114	=114	=114	=114
8A\L	#_	.	8a/L	.	2ryy	1r	.	.	.	.	.	1r	.	.	.	.	.	2ryy	2ryy
16A\L	.	.	16a/L	.	.	.	.	.	.	.	.	.	.	.	.	.	.	.	.
16G\JJ	.	.	16g/JJ	.	.	.	.	.	.	.	.	.	.	.	.	.	.	.	.
16A\LL	.	.	16a/LL	.	.	.	.	.	.	.	.	.	.	.	.	.	.	.	.
16B\	.	.	16b/	.	.	.	.	.	.	.	.	.	.	.	.	.	.	.	.
16c#X\	x	.	16cc#X/	.	.	.	.	.	.	.	.	.	.	.	.	.	.	.	.
16A\JJ	.	.	16a/JJ	.	.	.	.	.	.	.	.	.	.	.	.	.	.	.	.
=115	=115	=115	=115	=115	=115	=115	=115	=115	=115	=115	=115	=115	=115	=115	=115	=115	=115	=115	=115
!	!	!	!LO:TX:t=P:problem=mixed beam	!	!	!	!	!	!	!	!	!	!	!	!	!	!	!	!
8d\L	.	.	8dd\L	.	2ryy	.	.	2r	.	2r	.	.	.	2r	.	2r	.	2ryy	2ryy
32D\LL	.	.	32d/LL	.	.	.	.	.	.	.	.	.	.	.	.	.	.	.	.
32E\	.	.	(32e/	.	.	.	.	.	.	.	.	.	.	.	.	.	.	.	.
32F#\	.	.	32f#/	.	.	.	.	.	.	.	.	.	.	.	.	.	.	.	.
32G\JJJ	.	.	32g/JJJ)	.	.	.	.	.	.	.	.	.	.	.	.	.	.	.	.
!LO:TX:t=P:problem=mixed beam	!	!	!	!	!	!	!	!	!	!	!	!	!	!	!	!	!	!	!
8A\L	4	.	8a/L	.	.	.	.	.	.	.	.	.	.	.	.	.	.	.	.
8AA/J	#	.	8A/J	.	.	.	.	.	.	.	.	.	.	.	.	.	.	.	.
!	!	!	!	!	!	!	!	!LO:LB:g=original	!	!	!	!	!	!	!	!	!	!	!
=116	=116	=116	=116	=116	=116	=116	=116	=116	=116	=116	=116	=116	=116	=116	=116	=116	=116	=116	=116
*	*	*	*	*	*	*2\right	*	*	*	*2\right	*	*	*	*	*	*	*	*	*
!	!	!LO:DY:b:rj:t=poc f.	!	!LO:DY:t=poco f.	!	!	!	!	!	!	!	!	!	!	!LO:DY:a:t=poco fr	!	!LO:DY:a:t=poco f&colon;	!	!
8D\L	.	f	8d/L	f	2ryy	[2D\	ſuſ-	[2F#/	ſuſ-	[2d\	ſuſ-	[>2f#/	ſuſ-	8d/L	f	8d/L	f	2ryy	2ryy
16F#\L	.	.	16f#/L	.	.	.	.	.	.	.	.	.	.	16d/L	.	16d/L	.	.	.
16A\JJ	.	.	16a/JJ	.	.	.	.	.	.	.	.	.	.	16d/JJ	.	16d/JJ	.	.	.
8d\L	.	.	8dd\L	.	.	.	.	.	.	.	.	.	.	8d/L	.	8d/L	.	.	.
8d\J	.	.	8dd\J	.	.	.	.	.	.	.	.	.	.	8d/J	.	8d/J	.	.	.
=117	=117	=117	=117	=117	=117	=117	=117	=117	=117	=117	=117	=117	=117	=117	=117	=117	=117	=117	=117
4d\	.	.	4dd\	.	2ryy	4D\]	.	4F#/]	.	4d\]	.	4f#/]	.	2d/	.	2d/	.	2ryy	2ryy
4r	.	.	4r	.	.	8E\L	-ci-	8G/L	-ci-	8e\L	-ci-	8g\L	-ci-	.	.	.	.	.	.
.	.	.	.	.	.	16D\L	.	16F#/L	.	16d\L	.	16f#\L	.	.	.	.	.	.	.
.	.	.	.	.	.	16E\JJ	.	16G/JJ	.	16e\JJ	.	16g\JJ	.	.	.	.	.	.	.
=118	=118	=118	=118	=118	=118	=118	=118	=118	=118	=118	=118	=118	=118	=118	=118	=118	=118	=118	=118
*	*	*	*	*	*	*	*	*2\right	*	*	*	*2\right	*	*	*	*	*	*	*
8D\L	.	.	8d/L	.	2ryy	2F#\	-tans	2A\	-tans	2f#\	-tans	2a\	-tans	8d/L	.	8d/L	.	2ryy	2ryy
16F#\L	.	.	16f#/L	.	.	.	.	.	.	.	.	.	.	8d/	.	8d/	.	.	.
16A\JJ	.	.	16a/JJ	.	.	.	.	.	.	.	.	.	.	.	.	.	.	.	.
8d\L	.	.	8dd\L	.	.	.	.	.	.	.	.	.	.	8d/	.	8d/	.	.	.
8d\J	.	.	8dd\J	.	.	.	.	.	.	.	.	.	.	8d/J	.	8d/J	.	.	.
!	!	!	!	!	!	!	!	!	!	!	!	!	!	!LO:LB:g=original	!	!	!	!	!
=119	=119	=119	=119	=119	=119	=119	=119	=119	=119	=119	=119	=119	=119	=119	=119	=119	=119	=119	=119
4d\	.	.	4dd\	.	2ryy	4F#\	a	4A\	a	4f#\	a	4a\	a	2d/	.	2d/	.	2ryy	2ryy
4r	.	.	4r	.	.	8G\L	ter-	8B\L	ter-	8g\L	ter-	8b\L	ter-	.	.	.	.	.	.
.	.	.	.	.	.	16F#\L	.	16A\L	.	16f#\L	.	16a\L	.	.	.	.	.	.	.
.	.	.	.	.	.	16G\JJ	.	16B\JJ	.	16g\JJ	.	16b\JJ	.	.	.	.	.	.	.
!LO:LB:g=original	!	!	!	!	!	!	!	!	!	!LO:LB:g=original	!	!	!	!	!	!	!	!	!
=120	=120	=120	=120	=120	=120	=120	=120	=120	=120	=120	=120	=120	=120	=120	=120	=120	=120	=120	=120
8D\L	7nr_ 5_	.	8d/L	.	2ryy	2A\	.	2c\	.	2a\	.	2cc\	.	2d/	.	2a\	.	2ryy	2ryy
16F#\L	.	.	16f#/L	.	.	.	.	.	.	.	.	.	.	.	.	.	.	.	.
16A\JJ	.	.	16a/JJ	.	.	.	.	.	.	.	.	.	.	.	.	.	.	.	.
8d\L	.	.	8dd\L	.	.	.	.	.	.	.	.	.	.	.	.	.	.	.	.
8d\J	.	.	8dd\J	.	.	.	.	.	.	.	.	.	.	.	.	.	.	.	.
!	!	!	!LO:LB:g=original	!	!	!	!	!	!	!	!	!	!	!	!	!	!	!	!
=121	=121	=121	=121	=121	=121	=121	=121	=121	=121	=121	=121	=121	=121	=121	=121	=121	=121	=121	=121
8D\L	.	.	8d/L	.	2ryy	2A\	-ra	2c\	-ra	2a\	-ra	2cc\	-ra	2d/	.	2a\	.	2ryy	2ryy
16F#\L	.	.	16f#/L	.	.	.	.	.	.	.	.	.	.	.	.	.	.	.	.
16A\JJ	.	.	16a/JJ	.	.	.	.	.	.	.	.	.	.	.	.	.	.	.	.
8d\L	.	.	8dd\L	.	.	.	.	.	.	.	.	.	.	.	.	.	.	.	.
8d\J	.	.	8dd\J	.	.	.	.	.	.	.	.	.	.	.	.	.	.	.	.
!	!	!	!	!	!	!	!	!	!	!	!	!	!	!	!	!LO:LB:g=original	!	!	!
=122	=122	=122	=122	=122	=122	=122	=122	=122	=122	=122	=122	=122	=122	=122	=122	=122	=122	=122	=122
8D\L	.	.	8d/L	.	2ryy	4.A\	in-	4.c\	in-	4.a\	in-	4.cc\	in-	2d/	.	2a\	.	2ryy	2ryy
16F#\L	.	.	16f#/L	.	.	.	.	.	.	.	.	.	.	.	.	.	.	.	.
16A\JJ	.	.	16a/JJ	.	.	.	.	.	.	.	.	.	.	.	.	.	.	.	.
16d\LL	x x	.	16dd\LL	.	.	.	.	.	.	.	.	.	.	.	.	.	.	.	.
16c\	.	.	16cc\	.	.	.	.	.	.	.	.	.	.	.	.	.	.	.	.
16B\	.	.	16b\	.	.	16B\LL	-o-	16d\LL	-o-	16b\LL	-o-	16cc\LL	-o-	.	.	.	.	.	.
16A\JJ	.	.	16a\JJ	.	.	16A\JJ	.	16c\JJ	.	16a\JJ	.	16b\JJ	.	.	.	.	.	.	.
!	!	!	!	!	!	!	!	!	!	!	!	!LO:LB:g=original	!	!	!	!	!	!	!
=123	=123	=123	=123	=123	=123	=123	=123	=123	=123	=123	=123	=123	=123	=123	=123	=123	=123	=123	=123
!LO:TX:a:i:t=tutti	!	!	!	!	!	!	!	!	!	!	!	!	!	!	!	!	!	!	!
4G\	.	.	4g/	.	2ryy	4G\	-pem	4B\	-pem	8g\	-pem	8b\	-pem	4B/	.	4g\	.	2ryy	2ryy
.	.	.	.	.	.	.	.	.	.	16a\LL	&	16cc\LL	&	.	.	.	.	.	.
.	.	.	.	.	.	.	.	.	.	(16b\JJ	.	(16dd\JJ	.	.	.	.	.	.	.
!	!	!	!	!LO:DY:a:t=fz	!	!	!	!	!	!	!	!	!	!	!LO:DY:a	!	!LO:DY:a:t=fr	!	!
8r	.	.	8r	f	.	8r	.	8r	.	8cc\)	.	8ee\)	.	8r	f	8r	f	.	.
8G\	.	.	8b/	.	.	8G\	e-	8d\	e-	8b\	de	8dd\	de	8g\	.	8b\	.	.	.
!	!	!	!	!	!	!LO:LB:g=original	!	!	!	!	!	!	!	!	!	!	!	!	!
=124	=124	=124	=124	=124	=124	=124	=124	=124	=124	=124	=124	=124	=124	=124	=124	=124	=124	=124	=124
8F#\L	6_ 5_	.	8a/L	.	2ryy	8F#\	-ri-	8d\	-ri-	4.a\	ſter-	4.cc\	ſter-	2d/	.	2a\	.	2ryy	2ryy
8A\	.	.	8f#/	.	.	8A\	-gens	8d\	-gens	.	.	.	.	.	.	.	.	.	.
!	!	!	!	!	!	!	!	!LO:LB:g=original	!	!	!	!	!	!	!	!	!	!	!
8D\	.	.	8a/	.	.	8D\	pau-	8d\	pau-	.	.	.	.	.	.	.	.	.	.
8F#\J	x x	.	8a/J	.	.	8F#\	-pe-	8d\	-pe-	8a\	-co-	8cc\	-co-	.	.	.	.	.	.
=125	=125	=125	=125	=125	=125	=125	=125	=125	=125	=125	=125	=125	=125	=125	=125	=125	=125	=125	=125
4G\	.	.	4d/	.	2ryy	4G\	-rem	4d\	-rem	8g\	-re	8b\	-re	4B/	.	4g\	.	2ryy	2ryy
.	.	.	.	.	.	.	.	.	.	16a\LL	&	16cc\LL	&	.	.	.	.	.	.
.	.	.	.	.	.	.	.	.	.	(16b\JJ	.	(16dd\JJ	.	.	.	.	.	.	.
8r	.	.	8r	.	.	8r	.	8r	.	8cc\)	.	8ee\)	.	8r	.	8r	.	.	.
8G\	.	.	8b/	.	.	8G\	e-	8d\	e-	8b\	de	8dd\	de	8g\	.	8b\	.	.	.
!	!	!	!	!	!	!	!	!	!	!LO:LB:g=original	!	!	!	!	!	!	!	!	!
=126	=126	=126	=126	=126	=126	=126	=126	=126	=126	=126	=126	=126	=126	=126	=126	=126	=126	=126	=126
8F#\L	6_ 5_	.	8a/L	.	2ryy	8F#\	-ri-	8d\	-ri-	4.a\	ſter-	4.cc\	ſter-	2d/	.	2a\	.	2ryy	2ryy
8A\	.	.	8f#/	.	.	8A\	-gens	8d\	-gens	.	.	.	.	.	.	.	.	.	.
8D\	.	.	8a/	.	.	8D\	pau-	8d\	pau-	.	.	.	.	.	.	.	.	.	.
8F#\J	x x	.	8a/J	.	.	8F#\	-pe-	8d\	-pe-	8a\	-co-	8cc\	-co-	.	.	.	.	.	.
=127	=127	=127	=127	=127	=127	=127	=127	=127	=127	=127	=127	=127	=127	=127	=127	=127	=127	=127	=127
4G\	.	.	4d/	.	2ryy	4G\	-rem	4d\	-rem	8g\	-re	8b\	-re	4B/	.	4g\	.	2ryy	2ryy
.	.	.	.	.	.	.	.	.	.	16a\LL	&	16cc\LL	&	.	.	.	.	.	.
.	.	.	.	.	.	.	.	.	.	(16b\JJ	.	(16dd\JJ	.	.	.	.	.	.	.
8r	.	.	8r	.	.	8r	.	8r	.	8cc\)	.	8ee\)	.	8r	.	8r	.	.	.
8G\	.	.	8B/	.	.	8G\	e-	8d\	e-	8b\	de	8dd\	de	8g\	.	8b\	.	.	.
!LO:LB:g=original	!	!	!LO:PB:g=original	!	!	!	!	!	!	!	!	!LO:LB:g=original	!	!	!	!	!	!	!
=128	=128	=128	=128	=128	=128	=128	=128	=128	=128	=128	=128	=128	=128	=128	=128	=128	=128	=128	=128
8F#\L	6 5	.	16d/LL	.	2ryy	8F#\L	.	4d\	-ri-	8.a\	ſter-	8.cc\	ſter-	4d/	.	4a\	.	2ryy	2ryy
.	.	.	16c/	.	.	.	.	.	.	.	.	.	.	.	.	.	.	.	.
8D\	.	.	16A/	.	.	8D\J	.	.	.	.	.	.	.	.	.	.	.	.	.
.	.	.	16c/JJ	.	.	.	.	.	.	16a\	-co-	16cc\	-co-	.	.	.	.	.	.
8G\	.	.	16c/LL	.	.	8G\L	.	4d\	-gens	8g\	-re	8b\	-re	4g\	.	4b\	.	.	.
.	.	.	16B/	.	.	.	.	.	.	.	.	.	.	.	.	.	.	.	.
8B\J	.	.	16g/	.	.	8B\J	.	.	.	8g\	e-	8dd\	e-	.	.	.	.	.	.
.	.	.	16d/JJ	.	.	.	.	.	.	.	.	.	.	.	.	.	.	.	.
=129	=129	=129	=129	=129	=129	=129	=129	=129	=129	=129	=129	=129	=129	=129	=129	=129	=129	=129	=129
8F#\L	6 5	.	16d/LL	.	2ryy	8F#\L	-ri-	2d\	pau-	4a\	-ri-	4cc\	-ri-	4d/	.	4a\	.	2ryy	2ryy
.	.	.	16c/	.	.	.	.	.	.	.	.	.	.	.	.	.	.	.	.
8D\	.	.	16A/	.	.	8D\J	.	.	.	.	.	.	.	.	.	.	.	.	.
.	.	.	16c/JJ	.	.	.	.	.	.	.	.	.	.	.	.	.	.	.	.
8G\	.	.	16c/LL	.	.	8G\L	-gens	.	.	4g\	-gens	8b\L	-gens	4g\	.	4b\	.	.	.
.	.	.	16B/	.	.	.	.	.	.	.	.	.	.	.	.	.	.	.	.
8B\J	.	.	16g/	.	.	8B\J	.	.	.	.	.	8dd\J	.	.	.	.	.	.	.
.	.	.	16d/JJ	.	.	.	.	.	.	.	.	.	.	.	.	.	.	.	.
!	!	!	!	!	!	!LO:LB:g=original	!	!	!	!	!	!	!	!	!	!	!	!	!
=130	=130	=130	=130	=130	=130	=130	=130	=130	=130	=130	=130	=130	=130	=130	=130	=130	=130	=130	=130
!LO:TX:t=P:problem=mixed beam	!	!	!	!	!	!	!	!	!	!	!	!	!	!	!	!	!	!	!
8c\L	6	.	8e/L	.	2ryy	4c\	pau-	4e\	.	(4a\	pau-	8cc\L	pau-	4a\	.	4cc\	.	2ryy	2ryy
8c\	.	.	8a/	.	.	.	.	.	.	.	.	16ee\L	.	.	.	.	.	.	.
.	.	.	.	.	.	.	.	.	.	.	.	16cc\JJ	.	.	.	.	.	.	.
8d\	4	.	8g/	.	.	8d\	.	4d\	-pe-	8g\)	.	8b\	.	8g\L	.	8b\L	.	.	.
8D/J	3	.	8f#/J	.	.	8D\	-pe-	.	.	8f#\	-pe-	8a\	-pe-	8d\J	.	8a\J	.	.	.
!	!	!	!	!	!	!	!	!	!	!LO:LB:g=original	!	!	!	!LO:LB:g=original	!	!	!	!	!
=131	=131	=131	=131	=131	=131	=131	=131	=131	=131	=131	=131	=131	=131	=131	=131	=131	=131	=131	=131
!LO:TX:a:i:t=Solo&colon;	!	!	!	!LO:DY:a	!	!	!	!	!	!	!	!	!	!	!	!	!	!	!
4G\	.	.	4g/	p	2ryy	4G\	-rem	4d\	-rem	4g\	-rem	4b\	-rem	4B/	.	4g\	.	2ryy	2ryy
8r	.	.	8r	.	.	4r	.	4r	.	4r	.	4r	.	4r	.	4r	.	.	.
8G\	.	.	8g/	.	.	.	.	.	.	.	.	.	.	.	.	.	.	.	.
!	!	!	!	!	!	!	!	!LO:LB:g=original	!	!	!	!	!	!	!	!	!	!	!
=132	=132	=132	=132	=132	=132	=132	=132	=132	=132	=132	=132	=132	=132	=132	=132	=132	=132	=132	=132
8D\L	.	.	8f#/L	.	2ryy	1r	.	0r	.	0r	.	0r	.	2r	.	2r	.	2ryy	2ryy
8F#\	.	.	8a/	.	.	.	.	.	.	.	.	.	.	.	.	.	.	.	.
8G\	.	.	8b/	.	.	.	.	.	.	.	.	.	.	.	.	.	.	.	.
8B\J	.	.	8b/J	.	.	.	.	.	.	.	.	.	.	.	.	.	.	.	.
!	!	!	!	!	!	!	!	!	!	!	!	!	!	!	!	!LO:LB:g=original	!	!	!
=133	=133	=133	=133	=133	=133	=133	=133	=133	=133	=133	=133	=133	=133	=133	=133	=133	=133	=133	=133
!	!	!	!	!	!	!LO:TX:b:i:t=Verte Solo	!	!	!	!	!	!	!	!	!	!	!	!	!
8c\L	6	.	8a/L	.	2ryy	.	.	.	.	.	.	.	.	8r	.	8r	.	2ryy	2ryy
8c\	.	.	8a/	.	.	.	.	.	.	.	.	.	.	8a\L	.	8cc\L	.	.	.
8d\	4	.	8g/	.	.	.	.	.	.	.	.	.	.	8g\	.	8b\	.	.	.
8D\J	3	.	8f#/J	.	.	.	.	.	.	.	.	.	.	8d\J	.	8a\J	.	.	.
!	!	!	!	!	!	!LO:PB:g=original	!	!	!	!	!	!	!	!	!	!	!	!	!
=134	=134	=134	=134	=134	=134	=134	=134	=134	=134	=134	=134	=134	=134	=134	=134	=134	=134	=134	=134
*tremolo	*	*	*tremolo	*	*	*	*	*	*	*	*	*	*	*	*	*	*	*	*
!	!	!LO:DY:a	!	!	!	!LO:TX:a:i:t=Solo&colon;	!	!	!	!	!	!	!	!	!	!	!	!	!
8G\L	.	p	8g/L	.	2ryy	8G\	ut	.	.	.	.	.	.	4B/	.	4g\	.	2ryy	2ryy
8G\	.	.	8g/	.	.	16G\LL	Col-	.	.	.	.	.	.	.	.	.	.	.	.
.	.	.	.	.	.	16B\JJ	.	.	.	.	.	.	.	.	.	.	.	.	.
8G\	.	.	8g/	.	.	16c\LL	-lo-	.	.	.	.	.	.	4r	.	4r	.	.	.
.	.	.	.	.	.	16B\JJ	.	.	.	.	.	.	.	.	.	.	.	.	.
8G\J	.	.	8g/J	.	.	16e\LL	-cet	.	.	.	.	.	.	.	.	.	.	.	.
.	.	.	.	.	.	16d\JJ	.	.	.	.	.	.	.	.	.	.	.	.	.
=135	=135	=135	=135	=135	=135	=135	=135	=135	=135	=135	=135	=135	=135	=135	=135	=135	=135	=135	=135
8G\L	.	.	8d/L	.	2ryy	8.d\L	e-	.	.	.	.	.	.	0r	.	0r	.	2ryy	2ryy
8G\	.	.	8d/	.	.	.	.	.	.	.	.	.	.	.	.	.	.	.	.
.	.	.	.	.	.	16B\Jk	.	.	.	.	.	.	.	.	.	.	.	.	.
8G\	.	.	8d/	.	.	8G\	-um	.	.	.	.	.	.	.	.	.	.	.	.
8G\J	.	.	8d/J	.	.	8r	.	.	.	.	.	.	.	.	.	.	.	.	.
*Xtremolo	*	*	*	*	*	*	*	*	*	*	*	*	*	*	*	*	*	*	*
!	!	!	!LO:LB:g=original	!	!	!	!	!	!	!	!	!	!	!	!	!	!	!	!
=136	=136	=136	=136	=136	=136	=136	=136	=136	=136	=136	=136	=136	=136	=136	=136	=136	=136	=136	=136
*	*	*	*Xtremolo	*	*	*	*ij	*	*	*	*	*	*	*	*	*	*	*	*
8D\L	.	.	8f#/L	.	2ryy	8.F#\	e-	0r	.	0r	.	0r	.	.	.	.	.	2ryy	2ryy
8D\	.	.	8f#/	.	.	.	.	.	.	.	.	.	.	.	.	.	.	.	.
.	.	.	.	.	.	16A\	-um	.	.	.	.	.	.	.	.	.	.	.	.
*	*	*	*	*	*	*	*Xij	*	*	*	*	*	*	*	*	*	*	*	*
8D\	.	.	8f#/	.	.	16c\LL	Cum	.	.	.	.	.	.	.	.	.	.	.	.
.	.	.	.	.	.	16A\JJ	.	.	.	.	.	.	.	.	.	.	.	.	.
8F#\J	6 5	.	8d/J	.	.	16d\LL	prin-	.	.	.	.	.	.	.	.	.	.	.	.
.	.	.	.	.	.	16c\JJ	.	.	.	.	.	.	.	.	.	.	.	.	.
!LO:LB:g=original	!	!	!	!	!	!	!	!	!	!	!	!	!	!	!	!	!	!	!
=137	=137	=137	=137	=137	=137	=137	=137	=137	=137	=137	=137	=137	=137	=137	=137	=137	=137	=137	=137
*	*	*	*tremolo	*	*	*	*	*	*	*	*	*	*	*	*	*	*	*	*
!LO:TX:t=P:problem=mixed beam	!	!	!	!	!	!	!	!	!	!	!	!	!	!	!	!	!	!	!
8G\L	4	.	8d/L	.	2ryy	8.c\	-ci-	.	.	.	.	.	.	.	.	.	.	2ryy	2ryy
8G\	.	.	8d/	.	.	.	.	.	.	.	.	.	.	.	.	.	.	.	.
.	.	.	.	.	.	16c\	-pi-	.	.	.	.	.	.	.	.	.	.	.	.
8GG/	3	.	8d/	.	.	8B\	-bus	.	.	.	.	.	.	.	.	.	.	.	.
8BB/J	.	.	8d/J	.	.	8d\	po-	.	.	.	.	.	.	.	.	.	.	.	.
!	!	!	!	!	!	!LO:LB:g=original	!	!	!	!	!	!	!	!	!	!	!	!	!
=138	=138	=138	=138	=138	=138	=138	=138	=138	=138	=138	=138	=138	=138	=138	=138	=138	=138	=138	=138
*tremolo	*	*	*	*	*	*	*	*	*	*	*	*	*	*	*	*	*	*	*
8C/L	.	.	8e/L	.	2ryy	16e\LL	.	.	.	.	.	.	.	.	.	.	.	2ryy	2ryy
.	.	.	.	.	.	16c\	.	.	.	.	.	.	.	.	.	.	.	.	.
8C/	.	.	8e/	.	.	16G\	.	.	.	.	.	.	.	.	.	.	.	.	.
.	.	.	.	.	.	16E\JJ	.	.	.	.	.	.	.	.	.	.	.	.	.
8C/	.	.	8e/	.	.	8C/	.	.	.	.	.	.	.	.	.	.	.	.	.
8C/J	.	.	8e/J	.	.	8r	.	.	.	.	.	.	.	.	.	.	.	.	.
=139	=139	=139	=139	=139	=139	=139	=139	=139	=139	=139	=139	=139	=139	=139	=139	=139	=139	=139	=139
8C/L	.	.	8e/L	.	2ryy	8C\L	.	.	.	.	.	.	.	0r	.	0r	.	2ryy	2ryy
8C/	.	.	8e/	.	.	16E\L	.	.	.	.	.	.	.	.	.	.	.	.	.
.	.	.	.	.	.	16G\JJ	.	.	.	.	.	.	.	.	.	.	.	.	.
8C/	.	.	8e/	.	.	16c\LL	.	.	.	.	.	.	.	.	.	.	.	.	.
.	.	.	.	.	.	16G\	.	.	.	.	.	.	.	.	.	.	.	.	.
8C/J	.	.	8e/J	.	.	16e\	.	.	.	.	.	.	.	.	.	.	.	.	.
.	.	.	.	.	.	16c\JJ	.	.	.	.	.	.	.	.	.	.	.	.	.
=140	=140	=140	=140	=140	=140	=140	=140	=140	=140	=140	=140	=140	=140	=140	=140	=140	=140	=140	=140
8BB/L	6_	.	8d/L	.	2ryy	16d\LL	.	0r	.	0r	.	0r	.	.	.	.	.	2ryy	2ryy
.	.	.	.	.	.	16B\	.	.	.	.	.	.	.	.	.	.	.	.	.
8BB/	.	.	8d/	.	.	16G\	.	.	.	.	.	.	.	.	.	.	.	.	.
.	.	.	.	.	.	16D\JJ	.	.	.	.	.	.	.	.	.	.	.	.	.
8BB/	.	.	8d/	.	.	8BB/	.	.	.	.	.	.	.	.	.	.	.	.	.
8BB/J	.	.	8d/J	.	.	8r	.	.	.	.	.	.	.	.	.	.	.	.	.
=141	=141	=141	=141	=141	=141	=141	=141	=141	=141	=141	=141	=141	=141	=141	=141	=141	=141	=141	=141
8BB/L	.	.	8d/L	.	2ryy	8BB\L	.	.	.	.	.	.	.	.	.	.	.	2ryy	2ryy
8BB/	.	.	8d/	.	.	16D\L	.	.	.	.	.	.	.	.	.	.	.	.	.
.	.	.	.	.	.	16G\JJ	.	.	.	.	.	.	.	.	.	.	.	.	.
8BB/	.	.	8d/	.	.	16B\LL	.	.	.	.	.	.	.	.	.	.	.	.	.
.	.	.	.	.	.	16G\	.	.	.	.	.	.	.	.	.	.	.	.	.
8BB/J	.	.	8d/J	.	.	16d\	.	.	.	.	.	.	.	.	.	.	.	.	.
.	.	.	.	.	.	16B\JJ	.	.	.	.	.	.	.	.	.	.	.	.	.
=142	=142	=142	=142	=142	=142	=142	=142	=142	=142	=142	=142	=142	=142	=142	=142	=142	=142	=142	=142
8F#\L	6_ 5_	.	8d/L	.	2ryy	16d\LL	.	.	.	.	.	.	.	.	.	.	.	2ryy	2ryy
.	.	.	.	.	.	16c\	.	.	.	.	.	.	.	.	.	.	.	.	.
8F#\	.	.	8d/	.	.	16A\	.	.	.	.	.	.	.	.	.	.	.	.	.
.	.	.	.	.	.	16F#\JJ	.	.	.	.	.	.	.	.	.	.	.	.	.
!	!	!	!	!	!	!LO:LB:g=original	!	!	!	!	!	!	!	!	!	!	!	!	!
8F#\	.	.	8d/	.	.	8D\	.	.	.	.	.	.	.	.	.	.	.	.	.
8F#\J	.	.	8d/J	.	.	8r	.	.	.	.	.	.	.	.	.	.	.	.	.
=143	=143	=143	=143	=143	=143	=143	=143	=143	=143	=143	=143	=143	=143	=143	=143	=143	=143	=143	=143
8F#\L	.	.	8d/L	.	2ryy	8D\L	.	.	.	.	.	.	.	0r	.	0r	.	2ryy	2ryy
8F#\	.	.	8d/	.	.	16F#\L	.	.	.	.	.	.	.	.	.	.	.	.	.
.	.	.	.	.	.	16A\JJ	.	.	.	.	.	.	.	.	.	.	.	.	.
8F#\	.	.	8d/	.	.	16c\LL	.	.	.	.	.	.	.	.	.	.	.	.	.
.	.	.	.	.	.	16A\	.	.	.	.	.	.	.	.	.	.	.	.	.
8F#\J	.	.	8d/J	.	.	16d\	.	.	.	.	.	.	.	.	.	.	.	.	.
.	.	.	.	.	.	16c\JJ	.	.	.	.	.	.	.	.	.	.	.	.	.
*	*	*	*Xtremolo	*	*	*	*	*	*	*	*	*	*	*	*	*	*	*	*
=144	=144	=144	=144	=144	=144	=144	=144	=144	=144	=144	=144	=144	=144	=144	=144	=144	=144	=144	=144
8G\L	x x	.	8d/L	.	2ryy	8.B\	.	1r	.	1r	.	1r	.	.	.	.	.	2ryy	2ryy
8G\	.	.	8d/	.	.	.	.	.	.	.	.	.	.	.	.	.	.	.	.
.	.	.	.	.	.	16A\	-pu-	.	.	.	.	.	.	.	.	.	.	.	.
8G\	.	.	8d/	.	.	8G\	-li	.	.	.	.	.	.	.	.	.	.	.	.
8G\J	.	.	8g/J	.	.	8B\	po-	.	.	.	.	.	.	.	.	.	.	.	.
*Xtremolo	*	*	*	*	*	*	*	*	*	*	*	*	*	*	*	*	*	*	*
=145	=145	=145	=145	=145	=145	=145	=145	=145	=145	=145	=145	=145	=145	=145	=145	=145	=145	=145	=145
!LO:TX:t=P:problem=mixed beam	!	!	!	!	!	!	!	!	!	!	!	!	!	!	!	!	!	!	!
8c\L	.	.	8a/L	.	2ryy	8c\	-pu-	.	.	.	.	.	.	.	.	.	.	2ryy	2ryy
8c\	.	.	8a/	.	.	16B\LL	-li	.	.	.	.	.	.	.	.	.	.	.	.
.	.	.	.	.	.	16c\JJ	.	.	.	.	.	.	.	.	.	.	.	.	.
8d\	.	.	8g/	.	.	8d\L	ſu-	.	.	.	.	.	.	.	.	.	.	.	.
8D\J	.	.	8f#/J	.	.	8D\J	.	.	.	.	.	.	.	.	.	.	.	.	.
=146	=146	=146	=146	=146	=146	=146	=146	=146	=146	=146	=146	=146	=146	=146	=146	=146	=146	=146	=146
!	!	!	!	!LO:DY:a	!	!	!	!	!	!	!	!LO:TX:b:i:t=Verte	!	!	!	!	!	!	!
4G\	.	.	8g/L	f	2ryy	4G\	-i	2r	.	2r	.	2r	.	.	.	.	.	2ryy	2ryy
.	.	.	(32g/LL	.	.	.	.	.	.	.	.	.	.	.	.	.	.	.	.
.	.	.	32f#/	.	.	.	.	.	.	.	.	.	.	.	.	.	.	.	.
.	.	.	32g/	.	.	.	.	.	.	.	.	.	.	.	.	.	.	.	.
.	.	.	32a/JJJ	.	.	.	.	.	.	.	.	.	.	.	.	.	.	.	.
!LO:TX:a:i:t=tutti	!	!	!	!	!	!	!	!	!	!	!	!	!	!	!	!	!	!	!
4r	.	.	8g/L)	.	.	4r	.	.	.	.	.	.	.	.	.	.	.	.	.
.	.	.	(32b/LL	.	.	.	.	.	.	.	.	.	.	.	.	.	.	.	.
.	.	.	32a/	.	.	.	.	.	.	.	.	.	.	.	.	.	.	.	.
.	.	.	32b/)	.	.	.	.	.	.	.	.	.	.	.	.	.	.	.	.
.	.	.	32cc/JJJ	.	.	.	.	.	.	.	.	.	.	.	.	.	.	.	.
!	!	!	!LO:LB:g=original	!	!	!	!	!	!	!	!	!LO:PB:g=original	!	!	!	!	!	!	!
=147	=147	=147	=147	=147	=147	=147	=147	=147	=147	=147	=147	=147	=147	=147	=147	=147	=147	=147	=147
!	!	!	!	!	!	!LO:SIC:v:l:s=qui	!	!LO:SIC:v:l:s=qui	!	!LO:SIC:v:l:s=qui	!	!LO:SIC:v:l:s=qui	!	!	!	!	!	!	!
8G\L	.	.	16b/LL 16d/	.	2ryy	4G\	quis	4B\	quis	4b\	quis	4dd\	quis	2g\	.	2b\	.	2ryy	2ryy
.	.	.	16b/ 16d/	.	.	.	.	.	.	.	.	.	.	.	.	.	.	.	.
8G\	.	.	16b/ 16d/	.	.	.	.	.	.	.	.	.	.	.	.	.	.	.	.
.	.	.	16b/JJ 16d/	.	.	.	.	.	.	.	.	.	.	.	.	.	.	.	.
*	*	*	*tremolo	*	*	*	*	*	*	*	*	*	*	*	*	*	*	*	*
8G\	.	.	16b/ 16d/LL	.	.	8G\	ha-	8B\	ha-	8b\	ha-	8dd\	ha-	.	.	.	.	.	.
.	.	.	16b/ 16d/	.	.	.	.	.	.	.	.	.	.	.	.	.	.	.	.
8G\J	.	.	16b/ 16d/	.	.	8G\	-bi-	8B\	-bi-	8b\	-bi-	8dd\	-bi-	.	.	.	.	.	.
.	.	.	16b/ 16d/JJ	.	.	.	.	.	.	.	.	.	.	.	.	.	.	.	.
!	!	!	!	!	!	!LO:LB:g=original	!	!	!	!	!	!	!	!	!	!	!	!	!
=148	=148	=148	=148	=148	=148	=148	=148	=148	=148	=148	=148	=148	=148	=148	=148	=148	=148	=148	=148
*tremolo	*	*	*	*	*	*	*	*	*	*	*	*	*	*	*	*	*	*	*
8G\L	.	.	16b/ 16d/LL	.	2ryy	4G\	-ta-	4B\	-ta-	4b\	-ta-	4dd\	-ta-	2g\	.	2b\	.	2ryy	2ryy
.	.	.	16b/ 16d/	.	.	.	.	.	.	.	.	.	.	.	.	.	.	.	.
8G\	.	.	16b/ 16d/	.	.	.	.	.	.	.	.	.	.	.	.	.	.	.	.
.	.	.	16b/ 16d/JJ	.	.	.	.	.	.	.	.	.	.	.	.	.	.	.	.
8G\	.	.	16b/ 16d/LL	.	.	4G\	-re	4B\	-re	4b\	-re	4dd\	-re	.	.	.	.	.	.
.	.	.	16b/ 16d/	.	.	.	.	.	.	.	.	.	.	.	.	.	.	.	.
8G\J	.	.	16b/ 16d/	.	.	.	.	.	.	.	.	.	.	.	.	.	.	.	.
.	.	.	16b/ 16d/JJ	.	.	.	.	.	.	.	.	.	.	.	.	.	.	.	.
*Xtremolo	*	*	*	*	*	*	*	*	*	*	*	*	*	*	*	*	*	*	*
!LO:LB:g=original	!	!	!	!	!	!	!	!	!	!	!	!	!	!	!	!	!	!	!
=149	=149	=149	=149	=149	=149	=149	=149	=149	=149	=149	=149	=149	=149	=149	=149	=149	=149	=149	=149
*	*	*	*	*	*	*	*	*	*ij	*	*ij	*	*ij	*	*	*	*	*	*
!	!	!	!	!	!	!LO:SIC:v:l:s=qui	!	!LO:SIC:v:l:s=qui	!	!LO:SIC:v:l:s=qui	!	!LO:SIC:v:l:s=qui	!	!	!	!	!	!	!
8F#\L	6_ 5_	.	16a/ 16d/LL	.	2ryy	4F#\	quis	4c\	quis	4a\	quis	4dd\	quis	2d/	.	2a\	.	2ryy	2ryy
.	.	.	16a/ 16d/	.	.	.	.	.	.	.	.	.	.	.	.	.	.	.	.
8F#\	.	.	16a/ 16d/	.	.	.	.	.	.	.	.	.	.	.	.	.	.	.	.
.	.	.	16a/ 16d/JJ	.	.	.	.	.	.	.	.	.	.	.	.	.	.	.	.
8F#\	.	.	16a/ 16d/LL	.	.	8F#\	ha-	8c\	ha-	8a\	ha-	8dd\	ha-	.	.	.	.	.	.
.	.	.	16a/ 16d/	.	.	.	.	.	.	.	.	.	.	.	.	.	.	.	.
8F#\J	.	.	16a/ 16d/	.	.	8F#\	-bi-	8c\	-bi-	8a\	-bi-	8dd\	-bi-	.	.	.	.	.	.
.	.	.	16a/ 16d/JJ	.	.	.	.	.	.	.	.	.	.	.	.	.	.	.	.
=150	=150	=150	=150	=150	=150	=150	=150	=150	=150	=150	=150	=150	=150	=150	=150	=150	=150	=150	=150
*tremolo	*	*	*	*	*	*	*	*	*	*	*	*	*	*	*	*	*	*	*
8F#\L	x x	.	16a/ 16d/LL	.	2ryy	4F#\	-ta-	4c\	-ta-	4a\	-ta-	4dd\	-ta-	2d/	.	2a\	.	2ryy	2ryy
.	.	.	16a/ 16d/	.	.	.	.	.	.	.	.	.	.	.	.	.	.	.	.
8F#\	.	.	16a/ 16d/	.	.	.	.	.	.	.	.	.	.	.	.	.	.	.	.
.	.	.	16a/ 16d/JJ	.	.	.	.	.	.	.	.	.	.	.	.	.	.	.	.
8F#\	.	.	16a/ 16d/LL	.	.	4F#\	-re	4c\	-re	4a\	-re	4dd\	-re	.	.	.	.	.	.
*	*	*	*	*	*	*	*	*	*Xij	*	*Xij	*	*Xij	*	*	*	*	*	*
.	.	.	16a/ 16d/	.	.	.	.	.	.	.	.	.	.	.	.	.	.	.	.
8F#\J	.	.	16a/ 16d/	.	.	.	.	.	.	.	.	.	.	.	.	.	.	.	.
.	.	.	16a/ 16d/JJ	.	.	.	.	.	.	.	.	.	.	.	.	.	.	.	.
=151	=151	=151	=151	=151	=151	=151	=151	=151	=151	=151	=151	=151	=151	=151	=151	=151	=151	=151	=151
!	!	!	!	!	!	!	!	!LO:SIC:v:l:s=fa-	!	!	!	!	!	!	!	!	!	!	!
8G\L	.	.	16b/ 16d/LL	.	2ryy	4G\	fa-	4B\	fe-	4b\	fa-	4dd\	fa-	2g\	.	2b\	.	2ryy	2ryy
.	.	.	16b/ 16d/	.	.	.	.	.	.	.	.	.	.	.	.	.	.	.	.
8G\	.	.	16b/ 16d/	.	.	.	.	.	.	.	.	.	.	.	.	.	.	.	.
.	.	.	16b/ 16d/JJ	.	.	.	.	.	.	.	.	.	.	.	.	.	.	.	.
8G\	.	.	16b/ 16d/LL	.	.	4G\	-cit	4B\	-cit	4b\	-cit	4dd\	-cit	.	.	.	.	.	.
.	.	.	16b/ 16d/	.	.	.	.	.	.	.	.	.	.	.	.	.	.	.	.
8G\J	.	.	16b/ 16d/	.	.	.	.	.	.	.	.	.	.	.	.	.	.	.	.
.	.	.	16b/ 16d/JJ	.	.	.	.	.	.	.	.	.	.	.	.	.	.	.	.
!	!	!	!	!	!	!	!	!	!	!LO:LB:g=original	!	!	!	!	!	!	!	!	!
*Xtremolo	*	*	*Xtremolo	*	*	*	*	*	*	*	*	*	*	*	*	*	*	*	*
=152	=152	=152	=152	=152	=152	=152	=152	=152	=152	=152	=152	=152	=152	=152	=152	=152	=152	=152	=152
8A\L	7	.	8a/L	.	2ryy	8A\L	ſte-	4d\	ſte-	8g\L	ſte-	4cc\	ſte-	8g\L	.	4cc\	.	2ryy	2ryy
8D\	7	.	16g/L	.	.	8D\J	.	.	.	8f#\J	.	.	.	8d\	.	.	.	.	.
.	.	.	16a/JJ	.	.	.	.	.	.	.	.	.	.	.	.	.	.	.	.
!	!	!	!	!	!	!LO:SIC:v:l:s=-ri-	!	!LO:SIC:v:l:s=-ri-	!	!LO:SIC:v:l:s=-ri-	!	!LO:SIC:v:l:s=-ri-	!	!	!	!	!	!	!
8G\	.	.	8g/L	.	.	8G\L	-ril-	4d\	-ril-	4g\	-ril-	8b\L	-ril-	8g\	.	8b\L	.	.	.
8B\J	.	.	8g/J	.	.	8B\J	.	.	.	.	.	8dd\J	.	8b\J	.	8dd\J	.	.	.
!	!	!	!	!	!	!	!	!	!	!	!	!LO:LB:g=original	!	!	!	!	!	!	!
=153	=153	=153	=153	=153	=153	=153	=153	=153	=153	=153	=153	=153	=153	=153	=153	=153	=153	=153	=153
8c\L	6_	.	8a/L	.	2ryy	4.c\	-lem	4e\	-lem	4.a\	-lem	4.cc\	-lem	4.a\	.	4.cc\	.	2ryy	2ryy
8c\	.	.	8a/	.	.	.	.	.	.	.	.	.	.	.	.	.	.	.	.
8c\	x	.	8a/	.	.	.	.	4e\	in	.	.	.	.	.	.	.	.	.	.
8c#X\J	5	.	8g/J	.	.	8c#X\	in	.	.	8g\	in	8b\	in	8g\	.	8b\	.	.	.
!	!	!	!	!	!	!	!	!LO:LB:g=original	!	!	!	!	!	!LO:LB:g=original	!	!	!	!	!
=154	=154	=154	=154	=154	=154	=154	=154	=154	=154	=154	=154	=154	=154	=154	=154	=154	=154	=154	=154
!LO:TX:t=P:problem=mixed beam	!	!	!	!	!	!	!	!	!	!	!	!	!	!	!	!	!	!	!
8d\L	4	.	8.g/L	.	2ryy	4d\	do-	4d\	Do-	4g\	Do-	4b\	do-	4g\	.	4b\	.	2ryy	2ryy
8d\	.	.	.	.	.	.	.	.	.	.	.	.	.	.	.	.	.	.	.
.	.	.	32f#/LL	.	.	.	.	.	.	.	.	.	.	.	.	.	.	.	.
.	.	.	32g/JJJ	.	.	.	.	.	.	.	.	.	.	.	.	.	.	.	.
8D/J	3	.	16f#/LL	.	.	8D\	-mo	8d\	-mo	8f#\	-mo	8a\	-mo	8d/	.	8a\	.	.	.
.	.	.	16e/	.	.	.	.	.	.	.	.	.	.	.	.	.	.	.	.
8r	.	.	16f#/	.	.	8r	.	8r	.	8r	.	8r	.	8r	.	8r	.	.	.
.	.	.	16g/JJ	.	.	.	.	.	.	.	.	.	.	.	.	.	.	.	.
!	!	!	!LO:LB:g=original	!	!	!LO:LB:g=original	!	!	!	!	!	!	!	!	!	!	!	!	!
=155	=155	=155	=155	=155	=155	=155	=155	=155	=155	=155	=155	=155	=155	=155	=155	=155	=155	=155	=155
8F#\L	6_ 5_	.	16a\LL	.	2ryy	8F#\L	ma-	4d\	Ma-	4a\	ma-	4cc\	Ma-	2d/	.	2a\	.	2ryy	2ryy
.	.	.	16cc\	.	.	.	.	.	.	.	.	.	.	.	.	.	.	.	.
8A\	.	.	16ff#\	.	.	8A\J	.	.	.	.	.	.	.	.	.	.	.	.	.
.	.	.	16cc\JJ	.	.	.	.	.	.	.	.	.	.	.	.	.	.	.	.
8D\	x x	.	16aa\LL	.	.	8D\L	-trem	4d\	-trem	4a\	-trem	4cc\	-trem	.	.	.	.	.	.
.	.	.	16ff#\	.	.	.	.	.	.	.	.	.	.	.	.	.	.	.	.
8F#\J	.	.	16dd\	.	.	8F#\J	.	.	.	.	.	.	.	.	.	.	.	.	.
.	.	.	16cc\JJ	.	.	.	.	.	.	.	.	.	.	.	.	.	.	.	.
!	!	!	!	!	!	!	!	!	!	!	!	!	!	!	!	!LO:LB:g=original	!	!	!
=156	=156	=156	=156	=156	=156	=156	=156	=156	=156	=156	=156	=156	=156	=156	=156	=156	=156	=156	=156
8G\L	6	.	16b\LL	.	2ryy	8G\L	fi-	4d\	fi-	8g\L	fi-	8b\L	fi-	8g\L	.	8b\L	.	2ryy	2ryy
.	.	.	16dd\	.	.	.	.	.	.	.	.	.	.	.	.	.	.	.	.
8A\	.	.	16ee\	.	.	8A\J	.	.	.	8f#\J	.	8cc\J	.	8a\J	.	8cc\J	.	.	.
.	.	.	16ff#\JJ	.	.	.	.	.	.	.	.	.	.	.	.	.	.	.	.
8B\	6	.	16gg\LL	.	.	8B\L	-li-	4d\	-li-	4g\	-li-	8dd\L	-li-	4g\	.	4b\	.	.	.
.	.	.	16dd\	.	.	.	.	.	.	.	.	.	.	.	.	.	.	.	.
8G\J	.	.	16b\	.	.	8G\J	.	.	.	.	.	8b\J	.	.	.	.	.	.	.
.	.	.	16dd\JJ	.	.	.	.	.	.	.	.	.	.	.	.	.	.	.	.
=157	=157	=157	=157	=157	=157	=157	=157	=157	=157	=157	=157	=157	=157	=157	=157	=157	=157	=157	=157
8F#\L	6_ 5_	.	16cc\LL	.	2ryy	8F#\L	-o-	4d\	-o-	4a\	-o-	4cc\	-o-	2d/	.	2a\	.	2ryy	2ryy
.	.	.	16a\	.	.	.	.	.	.	.	.	.	.	.	.	.	.	.	.
8A\	.	.	16ff#\	.	.	8A\J	.	.	.	.	.	.	.	.	.	.	.	.	.
.	.	.	16cc\JJ	.	.	.	.	.	.	.	.	.	.	.	.	.	.	.	.
8D\	x x	.	16aa\LL	.	.	8D\	-rum	8d\	-rum	8a\	-rum	8cc\	-rum	.	.	.	.	.	.
.	.	.	16ff#\	.	.	.	.	.	.	.	.	.	.	.	.	.	.	.	.
8F#\J	.	.	16dd\	.	.	8F#\	lae-	8d\	lae-	8a\	lae-	8cc\	lae-	.	.	.	.	.	.
.	.	.	16cc\JJ	.	.	.	.	.	.	.	.	.	.	.	.	.	.	.	.
!LO:LB:g=original	!	!	!	!	!	!	!	!	!	!	!	!	!	!	!	!	!	!	!
=158	=158	=158	=158	=158	=158	=158	=158	=158	=158	=158	=158	=158	=158	=158	=158	=158	=158	=158	=158
8G\L	6	.	16b\LL	.	2ryy	8G\L	-tan-	4d\	-tan-	8g\L	-tan-	8b\L	-tan-	8g\L	.	8b\L	.	2ryy	2ryy
.	.	.	16dd\	.	.	.	.	.	.	.	.	.	.	.	.	.	.	.	.
8A\	.	.	16ee\	.	.	8A\J	.	.	.	8f#\J	.	8cc\J	.	8a\J	.	8cc\	.	.	.
.	.	.	16ff#\JJ	.	.	.	.	.	.	.	.	.	.	.	.	.	.	.	.
8B\	6	.	16gg\LL	.	.	8B\L	-tem	4d\	-tem	8g\L	-tem	4dd\	-tem	4g\	.	8b\J	.	.	.
.	.	.	16dd\	.	.	.	.	.	.	.	.	.	.	.	.	.	.	.	.
8G\J	.	.	16b\	.	.	8G\J	.	.	.	8b\J	.	.	.	.	.	8r	.	.	.
.	.	.	16dd\JJ	.	.	.	.	.	.	.	.	.	.	.	.	.	.	.	.
!	!	!	!	!	!	!	!	!	!	!LO:LB:g=original	!	!LO:LB:g=original	!	!	!	!	!	!	!
=159	=159	=159	=159	=159	=159	=159	=159	=159	=159	=159	=159	=159	=159	=159	=159	=159	=159	=159	=159
8c\L	6 3	.	16ee\LL	.	2ryy	8c\	ma-	8e\	Ma-	8cc\	ma-	8ee\	ma-	4r	.	4r	.	2ryy	2ryy
.	.	.	16gg\	.	.	.	.	.	.	.	.	.	.	.	.	.	.	.	.
8A\	.	.	16ff#\	.	.	8A\	-trem	8d\	-trem	8cc\	-trem	8ff#\	-trem	.	.	.	.	.	.
.	.	.	16aa\JJ	.	.	.	.	.	.	.	.	.	.	.	.	.	.	.	.
8B\	6	.	16aa\LL	.	.	8B\	fi-	8d\	fi-	8b\	fi-	8gg\	fi-	8r	.	8r	.	.	.
.	.	.	16gg\	.	.	.	.	.	.	.	.	.	.	.	.	.	.	.	.
8G\J	.	.	16dd\	.	.	8G\	-li-	8d\	-li-	8b\	-li-	8dd\	-li-	8g\	.	8b\	.	.	.
.	.	.	16b\JJ	.	.	.	.	.	.	.	.	.	.	.	.	.	.	.	.
=160	=160	=160	=160	=160	=160	=160	=160	=160	=160	=160	=160	=160	=160	=160	=160	=160	=160	=160	=160
8F#\L	6 5	.	16dd\LL	.	2ryy	8F#\L	-o-	4d\	-o-	4a\	-o-	4cc\	-o-	4d/	.	4a\	.	2ryy	2ryy
.	.	.	16cc\	.	.	.	.	.	.	.	.	.	.	.	.	.	.	.	.
8D\	.	.	16a\	.	.	8D\J	.	.	.	.	.	.	.	.	.	.	.	.	.
.	.	.	16cc\JJ	.	.	.	.	.	.	.	.	.	.	.	.	.	.	.	.
!	!	!	!LO:LB:g=original	!	!	!	!	!	!	!	!	!	!	!	!	!	!	!	!
8G\	.	.	16cc\LL	.	.	8G\	-rum	8d\	-rum	8g\	-rum	8b\	-rum	4g\	.	4b\	.	.	.
.	.	.	16b\	.	.	.	.	.	.	.	.	.	.	.	.	.	.	.	.
!	!	!	!	!	!	!	!	!LO:LB:g=original	!	!	!	!	!	!	!	!	!	!	!
8B\J	.	.	16gg\	.	.	8B\	lae-	8d\	lae-	8g\	lae-	8dd\	lae-	.	.	.	.	.	.
.	.	.	16dd\JJ	.	.	.	.	.	.	.	.	.	.	.	.	.	.	.	.
!	!	!	!	!	!	!LO:LB:g=original	!	!	!	!	!	!	!	!	!	!	!	!	!
=161	=161	=161	=161	=161	=161	=161	=161	=161	=161	=161	=161	=161	=161	=161	=161	=161	=161	=161	=161
!LO:TX:t=P:problem=mixed beam	!	!	!	!	!	!	!	!	!	!	!	!	!	!	!	!	!	!	!
8c\L	6	.	8cc\L	.	2ryy	4c\	-tan-	(4e\	-tan-	4a\	-tan-	4cc\	-tan-	4a\	.	4cc\	.	2ryy	2ryy
8c\	.	.	16cc\L	.	.	.	.	.	.	.	.	.	.	.	.	.	.	.	.
.	.	.	16a\JJ	.	.	.	.	.	.	.	.	.	.	.	.	.	.	.	.
8d\	4	.	8g/L	.	.	8d\L	.	4d\)	.	8g\L	.	8b\L	.	8g\L	.	8b\L	.	.	.
8D/J	3	.	8f#/J	.	.	8D\J	.	.	.	8f#\J	.	8a\J	.	8d\J	.	8a\J	.	.	.
=162	=162	=162	=162	=162	=162	=162	=162	=162	=162	=162	=162	=162	=162	=162	=162	=162	=162	=162	=162
4G\	.	.	4g/	.	2ryy	4G\	-tem	4d\	-tem	4g\	-tem	4b\	-tem	4B/	.	4g\	.	2ryy	2ryy
8r	.	.	8r	.	.	4r	.	4r	.	4r	.	4r	.	4r	.	4r	.	.	.
!LO:TX:a:i:t=Solo&colon;	!	!	!	!	!	!	!	!	!	!	!	!	!	!	!	!	!	!	!
8G\	.	.	8g/	.	.	.	.	.	.	.	.	.	.	.	.	.	.	.	.
=163	=163	=163	=163	=163	=163	=163	=163	=163	=163	=163	=163	=163	=163	=163	=163	=163	=163	=163	=163
8D\L	.	.	8f#/L	.	2ryy	0r	.	0r	.	1r	.	1r	.	2r	.	2r	.	2ryy	2ryy
8F#\	.	.	8a/	.	.	.	.	.	.	.	.	.	.	.	.	.	.	.	.
8G\	.	.	8b/	.	.	.	.	.	.	.	.	.	.	.	.	.	.	.	.
8B\J	.	.	8b/J	.	.	.	.	.	.	.	.	.	.	.	.	.	.	.	.
!	!	!	!	!	!	!	!	!	!	!	!	!	!	!LO:PB:g=original	!	!	!	!	!
=164	=164	=164	=164	=164	=164	=164	=164	=164	=164	=164	=164	=164	=164	=164	=164	=164	=164	=164	=164
8c\L	.	.	8a/L	.	2ryy	.	.	.	.	.	.	.	.	8r	.	8r	.	2ryy	2ryy
8c\	.	.	8a/	.	.	.	.	.	.	.	.	.	.	8a\L	.	8cc\L	.	.	.
8d\	.	.	8g/	.	.	.	.	.	.	.	.	.	.	8g\	.	8b\	.	.	.
8D\J	.	.	8f#/J	.	.	.	.	.	.	.	.	.	.	8d\J	.	8a\J	.	.	.
=165	=165	=165	=165	=165	=165	=165	=165	=165	=165	=165	=165	=165	=165	=165	=165	=165	=165	=165	=165
!	!	!	!	!LO:DY:a	!	!	!	!	!	!LO:TX:b:i:t=Solo&colon;	!	!LO:TX:a:i:t=Solo&colon;	!	!	!	!	!	!	!
4G\	.	.	8g/L	p	2ryy	.	.	.	.	4b\	Glo-	4dd\	Glo-	4B/	.	4g\	.	2ryy	2ryy
.	.	.	8g/	.	.	.	.	.	.	.	.	.	.	.	.	.	.	.	.
4r	.	.	8G/	.	.	.	.	.	.	8b\	-ri-	8dd\	-ri-	4r	.	4r	.	.	.
.	.	.	8g/J	.	.	.	.	.	.	8a\	-a	8cc\	-a	.	.	.	.	.	.
!	!	!	!	!	!	!	!	!	!	!LO:LB:g=original	!	!LO:LB:g=original	!	!	!	!	!	!	!
=166	=166	=166	=166	=166	=166	=166	=166	=166	=166	=166	=166	=166	=166	=166	=166	=166	=166	=166	=166
0r	.	.	8G/L	.	2ryy	.	.	.	.	[4g\	pa-	[4b\	pa-	0r	.	0r	.	2ryy	2ryy
.	.	.	8g/	.	.	.	.	.	.	.	.	.	.	.	.	.	.	.	.
.	.	.	8G/	.	.	.	.	.	.	16g\LL]	.	16b\LL]	.	.	.	.	.	.	.
.	.	.	.	.	.	.	.	.	.	16f#\JJ	.	16a\JJ	.	.	.	.	.	.	.
.	.	.	8g/J	.	.	.	.	.	.	16g\LL	-tri	16b\LL	-tri	.	.	.	.	.	.
.	.	.	.	.	.	.	.	.	.	16a\JJ	.	16cc\JJ	.	.	.	.	.	.	.
=167	=167	=167	=167	=167	=167	=167	=167	=167	=167	=167	=167	=167	=167	=167	=167	=167	=167	=167	=167
.	.	.	8G/L	.	2ryy	0r	.	0r	.	4b\	Glo-	4dd\	Glo-	.	.	.	.	2ryy	2ryy
.	.	.	8g/	.	.	.	.	.	.	.	.	.	.	.	.	.	.	.	.
.	.	.	8G/	.	.	.	.	.	.	8b\	-ri-	8dd\	-ri-	.	.	.	.	.	.
.	.	.	8g/J	.	.	.	.	.	.	8a\	-a	8cc\	-a	.	.	.	.	.	.
=168	=168	=168	=168	=168	=168	=168	=168	=168	=168	=168	=168	=168	=168	=168	=168	=168	=168	=168	=168
.	.	.	8G/L	.	2ryy	.	.	.	.	8.a\	fi-	8.cc\	fi-	.	.	.	.	2ryy	2ryy
.	.	.	8g/	.	.	.	.	.	.	.	.	.	.	.	.	.	.	.	.
.	.	.	.	.	.	.	.	.	.	16a\	-li-	16cc\	-li-	.	.	.	.	.	.
.	.	.	8G/	.	.	.	.	.	.	8g\	-o	8b\	-o	.	.	.	.	.	.
.	.	.	8g/J	.	.	.	.	.	.	8b\	&	8dd\	&	.	.	.	.	.	.
!	!	!	!LO:LB:g=original	!	!	!	!	!	!	!	!	!	!	!	!	!	!	!	!
=169	=169	=169	=169	=169	=169	=169	=169	=169	=169	=169	=169	=169	=169	=169	=169	=169	=169	=169	=169
.	.	.	8G/L	.	2ryy	.	.	.	.	4.cc\	ſpi-	4.ee\	ſpi-	.	.	.	.	2ryy	2ryy
.	.	.	8g/	.	.	.	.	.	.	.	.	.	.	.	.	.	.	.	.
.	.	.	8G/	.	.	.	.	.	.	.	.	.	.	.	.	.	.	.	.
.	.	.	8g/J	.	.	.	.	.	.	8b\	.	8dd\	.	.	.	.	.	.	.
=170	=170	=170	=170	=170	=170	=170	=170	=170	=170	=170	=170	=170	=170	=170	=170	=170	=170	=170	=170
2r	.	.	8G/L	.	2ryy	.	.	.	.	8.b\L	-ri-	8.dd\L	-ri-	2r	.	2r	.	2ryy	2ryy
.	.	.	8g/	.	.	.	.	.	.	.	.	.	.	.	.	.	.	.	.
.	.	.	.	.	.	.	.	.	.	16a\Jk	.	16cc\Jk	.	.	.	.	.	.	.
.	.	.	8G/	.	.	.	.	.	.	8g\	-tu-	8b\	-tu-	.	.	.	.	.	.
.	.	.	8g/J	.	.	.	.	.	.	8b\	-i	8dd\	-i	.	.	.	.	.	.
!LO:LB:g=original	!	!	!	!	!	!	!	!	!	!LO:LB:g=original	!	!LO:LB:g=original	!	!	!	!LO:PB:g=original	!	!	!
=171	=171	=171	=171	=171	=171	=171	=171	=171	=171	=171	=171	=171	=171	=171	=171	=171	=171	=171	=171
!	!	!LO:DY:a	!	!	!	!	!	!	!	!	!	!	!	!	!	!	!	!	!
8r	.	p	8c/L	.	2ryy	1r	.	1r	.	4a\	ſan-	4cc\	ſan-	8r	.	8r	.	2ryy	2ryy
!LO:TX:t=P:problem=mixed beam	!	!	!	!	!	!	!	!	!	!	!	!	!	!	!	!	!	!	!
8c\L	6	.	8c/	.	.	.	.	.	.	.	.	.	.	8a\L	.	8cc\L	.	.	.
8d\	4	.	8B/	.	.	.	.	.	.	8g\L	.	8b\L	.	8g\	.	8b\	.	.	.
8D/J	3	.	8A/J	.	.	.	.	.	.	8f#\J	.	8a\J	.	8d\J	.	8a\J	.	.	.
=172	=172	=172	=172	=172	=172	=172	=172	=172	=172	=172	=172	=172	=172	=172	=172	=172	=172	=172	=172
!	!	!	!LO:TX:t=P:problem=mixed beam	!	!	!	!	!	!	!	!	!	!	!	!	!	!	!	!
4G\	.	.	16B/LL	.	2ryy	.	.	.	.	4g\	-cto	4b\	-cto	4B/	.	4g\	.	2ryy	2ryy
.	.	.	16b\	.	.	.	.	.	.	.	.	.	.	.	.	.	.	.	.
!	!	!	!	!LO:DY:a	!	!	!	!	!	!	!	!	!	!	!	!	!	!	!
.	.	.	16cc\	f	.	.	.	.	.	.	.	.	.	.	.	.	.	.	.
.	.	.	16dd\JJ	.	.	.	.	.	.	.	.	.	.	.	.	.	.	.	.
!LO:TX:a:i:t=tutti	!	!	!	!	!	!	!	!	!	!	!	!	!	!	!	!	!	!	!
4r	.	.	16ee\LL	.	.	.	.	.	.	4r	.	4r	.	4r	.	4r	.	.	.
.	.	.	16ff#\	.	.	.	.	.	.	.	.	.	.	.	.	.	.	.	.
.	.	.	16gg\	.	.	.	.	.	.	.	.	.	.	.	.	.	.	.	.
.	.	.	16aa\JJ	.	.	.	.	.	.	.	.	.	.	.	.	.	.	.	.
=173	=173	=173	=173	=173	=173	=173	=173	=173	=173	=173	=173	=173	=173	=173	=173	=173	=173	=173	=173
8G\L	.	.	8bb\L	.	2ryy	4G\	ſi-	4d\	ſi-	4g\	ſi-	4b\	ſi-	2g\	.	2b\	.	2ryy	2ryy
8G\	.	.	8b\	.	.	.	.	.	.	.	.	.	.	.	.	.	.	.	.
8G\	.	.	8b\	.	.	4G\	-cut	4d\	-cut	4g\	-cut	4b\	-cut	.	.	.	.	.	.
8G\J	.	.	8b\J	.	.	.	.	.	.	.	.	.	.	.	.	.	.	.	.
=174	=174	=174	=174	=174	=174	=174	=174	=174	=174	=174	=174	=174	=174	=174	=174	=174	=174	=174	=174
*tremolo	*	*	*tremolo	*	*	*	*	*	*	*	*	*	*	*	*	*	*	*	*
8A\L	6 3	.	8cc\L	.	2ryy	4A\	e-	4d\	e-	4f#\	e-	4cc\	e-	2a\	.	2cc\	.	2ryy	2ryy
8A\	.	.	8cc\	.	.	.	.	.	.	.	.	.	.	.	.	.	.	.	.
8A\	.	.	8cc\	.	.	4A\	-rat	4d\	-rat	4f#\	-rat	4cc\	-rat	.	.	.	.	.	.
8A\J	.	.	8cc\J	.	.	.	.	.	.	.	.	.	.	.	.	.	.	.	.
=175	=175	=175	=175	=175	=175	=175	=175	=175	=175	=175	=175	=175	=175	=175	=175	=175	=175	=175	=175
8D\L	.	.	8a/L	.	2ryy	4D\	in	4d\	in	4f#\	in	4a\	in	2d/	.	2a\	.	2ryy	2ryy
8D\	.	.	8a/	.	.	.	.	.	.	.	.	.	.	.	.	.	.	.	.
8D\	.	.	8a/	.	.	4D\	prin-	4d\	prin-	4f#\	prin-	4a\	prin-	.	.	.	.	.	.
8D\J	.	.	8a/J	.	.	.	.	.	.	.	.	.	.	.	.	.	.	.	.
*Xtremolo	*	*	*Xtremolo	*	*	*	*	*	*	*	*	*	*	*	*	*	*	*	*
=176	=176	=176	=176	=176	=176	=176	=176	=176	=176	=176	=176	=176	=176	=176	=176	=176	=176	=176	=176
8G\L	.	.	8b\L	.	2ryy	8G\	-ci-	8d\	-ci-	8g\	-ci-	8b\	-ci-	2g\	.	2b\	.	2ryy	2ryy
8G\	.	.	8b\	.	.	8G\	-pi-	8d\	-pi-	8g\	-pi-	8b\	-pi-	.	.	.	.	.	.
8B\	6	.	8dd\	.	.	8B\	-o	8d\	-o	8g\	-o	8dd\	-o	.	.	.	.	.	.
8B\J	.	.	8dd\J	.	.	8B\	&	8d\	&	8g\	&	8dd\	&	.	.	.	.	.	.
!	!	!	!	!	!	!LO:LB:g=original	!	!LO:LB:g=original	!	!	!	!LO:LB:g=original	!	!	!	!	!	!	!
=177	=177	=177	=177	=177	=177	=177	=177	=177	=177	=177	=177	=177	=177	=177	=177	=177	=177	=177	=177
*tremolo	*	*	*tremolo	*	*	*	*	*	*	*	*	*	*	*	*	*	*	*	*
8c\L	6	.	8ee\L	.	2ryy	4c\	nunc	4c\	nunc	4a\	nunc	4ee\	nunc	2a\	.	2cc\	.	2ryy	2ryy
8c\	.	.	8ee\	.	.	.	.	.	.	.	.	.	.	.	.	.	.	.	.
8c\	.	.	8ee\	.	.	4c\	&	4c\	&	4a\	&	4ee\	&	.	.	.	.	.	.
8c\J	.	.	8ee\J	.	.	.	.	.	.	.	.	.	.	.	.	.	.	.	.
!	!	!	!	!	!	!	!	!	!	!LO:LB:g=original	!	!	!	!	!	!	!	!	!
=178	=178	=178	=178	=178	=178	=178	=178	=178	=178	=178	=178	=178	=178	=178	=178	=178	=178	=178	=178
8B\L	6	.	8dd\L	.	2ryy	4B\	ſem-	4B\	ſem-	4g\	ſem-	4dd\	ſem-	2g\	.	2b\	.	2ryy	2ryy
8B\	.	.	8dd\	.	.	.	.	.	.	.	.	.	.	.	.	.	.	.	.
8B\	.	.	8dd\	.	.	8B\	-per	8d\	-per	8g\	-per	8dd\	-per	.	.	.	.	.	.
8B\J	.	.	8dd\J	.	.	8B\	&	8d\	&	8g\	&	8dd\	&	.	.	.	.	.	.
*Xtremolo	*	*	*Xtremolo	*	*	*	*	*	*	*	*	*	*	*	*	*	*	*	*
!	!	!	!LO:LB:g=original	!	!	!	!	!	!	!	!	!	!	!LO:LB:g=original	!	!	!	!	!
=179	=179	=179	=179	=179	=179	=179	=179	=179	=179	=179	=179	=179	=179	=179	=179	=179	=179	=179	=179
8c\L	6_	.	8ee\L	.	2ryy	4.c\	nunc	4e\	nunc	4.a\	nunc	4.cc\	nunc	4a\	.	4cc\	.	2ryy	2ryy
8c\	.	.	8ee\J	.	.	.	.	.	.	.	.	.	.	.	.	.	.	.	.
8c\	x	.	16dd\LL	.	.	.	.	4e\	&	.	.	.	.	8g\L	.	8b\L	.	.	.
.	.	.	16cc\	.	.	.	.	.	.	.	.	.	.	.	.	.	.	.	.
8c#X\J	5	.	16cc\	.	.	8c#X\	&	.	.	8g\	&	8b\	&	8g\J	.	8b\J	.	.	.
.	.	.	16b\JJ	.	.	.	.	.	.	.	.	.	.	.	.	.	.	.	.
=180	=180	=180	=180	=180	=180	=180	=180	=180	=180	=180	=180	=180	=180	=180	=180	=180	=180	=180	=180
8d\L	4	.	8.b/L	.	2ryy	4d\	ſem-	4d\	ſem-	4g\	ſem-	4b\	ſem-	4g\	.	4b\	.	2ryy	2ryy
8d\	.	.	.	.	.	.	.	.	.	.	.	.	.	.	.	.	.	.	.
.	.	.	32a/LL	.	.	.	.	.	.	.	.	.	.	.	.	.	.	.	.
.	3	.	32b/JJJ	.	.	.	.	.	.	.	.	.	.	.	.	.	.	.	.
8D\J	.	.	16a/LL	.	.	8D\	-per	8d\	-per	8f#\	-per	8a\	-per	8d/	.	8a\	.	.	.
.	.	.	16d/	.	.	.	.	.	.	.	.	.	.	.	.	.	.	.	.
8r	.	.	16f#/	.	.	8r	.	8r	.	8r	.	8r	.	8r	.	8r	.	.	.
.	.	.	16a/JJ	.	.	.	.	.	.	.	.	.	.	.	.	.	.	.	.
!LO:LB:g=original	!	!	!	!	!	!	!	!	!	!	!	!	!	!	!	!	!	!	!
=181	=181	=181	=181	=181	=181	=181	=181	=181	=181	=181	=181	=181	=181	=181	=181	=181	=181	=181	=181
8F#\L	6 5	.	16cc\LL	.	2ryy	4F#\	&	4d\	&	4a\	&	4cc\	&	4d/	.	4a\	.	2ryy	2ryy
.	.	.	16a\	.	.	.	.	.	.	.	.	.	.	.	.	.	.	.	.
8F#\	.	.	16dd\	.	.	.	.	.	.	.	.	.	.	.	.	.	.	.	.
.	.	.	16cc\JJ	.	.	.	.	.	.	.	.	.	.	.	.	.	.	.	.
8G\	.	.	16cc/LL	.	.	4G\	in	4d\	in	4g\	in	4b\	in	4g\	.	4b\	.	.	.
.	.	.	16b/	.	.	.	.	.	.	.	.	.	.	.	.	.	.	.	.
8G\J	.	.	16a/	.	.	.	.	.	.	.	.	.	.	.	.	.	.	.	.
.	.	.	16g/JJ	.	.	.	.	.	.	.	.	.	.	.	.	.	.	.	.
=182	=182	=182	=182	=182	=182	=182	=182	=182	=182	=182	=182	=182	=182	=182	=182	=182	=182	=182	=182
8A\L	6 3	.	16f#/LL	.	2ryy	8A\	ſae-	8d\	ſae-	8f#\	ſae-	8cc\	ſae-	4a\	.	4cc\	.	2ryy	2ryy
.	.	.	16g/	.	.	.	.	.	.	.	.	.	.	.	.	.	.	.	.
8A\	.	.	16a/	.	.	8A\	-cu-	8d\	-cu-	8f#\	-cu-	8cc\	-cu-	.	.	.	.	.	.
.	.	.	16f#/JJ	.	.	.	.	.	.	.	.	.	.	.	.	.	.	.	.
8B\	6 3	.	16g/LL	.	.	4B\	-la	4d\	-la	4g\	-la	4dd\	-la	4g\	.	4b\	.	.	.
.	.	.	16d/	.	.	.	.	.	.	.	.	.	.	.	.	.	.	.	.
8B\J	.	.	16b/	.	.	.	.	.	.	.	.	.	.	.	.	.	.	.	.
.	.	.	16g/JJ	.	.	.	.	.	.	.	.	.	.	.	.	.	.	.	.
!	!	!	!	!	!	!	!	!	!	!	!	!LO:LB:g=original	!	!	!	!LO:LB:g=original	!	!	!
=183	=183	=183	=183	=183	=183	=183	=183	=183	=183	=183	=183	=183	=183	=183	=183	=183	=183	=183	=183
8F#\L	6 5	.	16cc\LL	.	2ryy	4F#\	ſae-	4d\	ſae-	4a\	ſae-	4cc\	ſae-	4d/	.	4a\	.	2ryy	2ryy
.	.	.	16a\	.	.	.	.	.	.	.	.	.	.	.	.	.	.	.	.
8F#\	.	.	16dd\	.	.	.	.	.	.	.	.	.	.	.	.	.	.	.	.
.	.	.	16cc\JJ	.	.	.	.	.	.	.	.	.	.	.	.	.	.	.	.
8G\	.	.	16cc/LL	.	.	4G\	-cu-	4d\	-cu-	4g\	-cu-	4b\	-cu-	4g\	.	4b\	.	.	.
.	.	.	16b/	.	.	.	.	.	.	.	.	.	.	.	.	.	.	.	.
8G\J	.	.	16a/	.	.	.	.	.	.	.	.	.	.	.	.	.	.	.	.
.	.	.	16g/JJ	.	.	.	.	.	.	.	.	.	.	.	.	.	.	.	.
!	!	!	!	!	!	!LO:LB:g=original	!	!LO:LB:g=original	!	!	!	!	!	!	!	!	!	!	!
=184	=184	=184	=184	=184	=184	=184	=184	=184	=184	=184	=184	=184	=184	=184	=184	=184	=184	=184	=184
8A\L	6 3	.	16f#/LL	.	2ryy	4A\	-lo-	4d\	-lo-	4f#\	-lo-	4cc\	-lo-	4a\	.	4cc\	.	2ryy	2ryy
.	.	.	16g/	.	.	.	.	.	.	.	.	.	.	.	.	.	.	.	.
8A\	.	.	16a/	.	.	.	.	.	.	.	.	.	.	.	.	.	.	.	.
.	.	.	16f#/JJ	.	.	.	.	.	.	.	.	.	.	.	.	.	.	.	.
!	!	!	!LO:LB:g=original	!	!	!	!	!	!	!	!	!	!	!	!	!	!	!	!
8B\	6 3	.	16g/LL	.	.	4B\	-rum	4d\	-rum	4g\	-rum	4dd\	-rum	4g\	.	4b\	.	.	.
.	.	.	16d/	.	.	.	.	.	.	.	.	.	.	.	.	.	.	.	.
8B\J	.	.	16b/	.	.	.	.	.	.	.	.	.	.	.	.	.	.	.	.
.	.	.	16g/JJ	.	.	.	.	.	.	.	.	.	.	.	.	.	.	.	.
!	!	!	!	!	!	!	!	!	!	!LO:LB:g=original	!	!	!	!	!	!	!	!	!
=185	=185	=185	=185	=185	=185	=185	=185	=185	=185	=185	=185	=185	=185	=185	=185	=185	=185	=185	=185
*tremolo	*	*	*	*	*	*	*	*	*	*	*	*	*ij	*	*	*	*	*	*
8c\L	6	.	8ee\L	.	2ryy	4c\	ſae-	4c\	ſae-	4a\	ſae-	4ee\	ſae-	2a\	.	2cc\	.	2ryy	2ryy
8c\	.	.	8ee\	.	.	.	.	.	.	.	.	.	.	.	.	.	.	.	.
8c\	.	.	8ee\	.	.	4c\	-cu-	4c\	-cu-	4a\	-cu-	4ee\	-cu-	.	.	.	.	.	.
8c\J	.	.	8ee\J	.	.	.	.	.	.	.	.	.	.	.	.	.	.	.	.
=186	=186	=186	=186	=186	=186	=186	=186	=186	=186	=186	=186	=186	=186	=186	=186	=186	=186	=186	=186
*	*	*	*tremolo	*	*	*	*	*	*	*	*	*	*	*	*	*	*	*	*
8B\L	6	.	8dd\L	.	2ryy	4B\	-lo-	4d\	-lo-	4g\	-lo-	4dd\	-lo-	2g\	.	2b\	.	2ryy	2ryy
8B\	.	.	8dd\	.	.	.	.	.	.	.	.	.	.	.	.	.	.	.	.
8B\	.	.	8dd\	.	.	4B\	-rum	4d\	-rum	4g\	-rum	4dd\	-rum	.	.	.	.	.	.
8B\J	.	.	8dd\J	.	.	.	.	.	.	.	.	.	.	.	.	.	.	.	.
*	*	*	*Xtremolo	*	*	*	*	*	*	*	*	*	*Xij	*	*	*	*	*	*
*Xtremolo	*	*	*	*	*	*	*	*	*	*	*	*	*	*	*	*	*	*	*
=187	=187	=187	=187	=187	=187	=187	=187	=187	=187	=187	=187	=187	=187	=187	=187	=187	=187	=187	=187
!LO:TX:t=P:problem=mixed beam	!	!	!	!	!	!	!	!	!	!	!	!	!	!	!	!	!	!	!
8c\L	6	.	8cc\L	.	2ryy	4c\	a-	4e\	a-	4a\	a-	4cc\	a-	4a\	.	4cc\	.	2ryy	2ryy
8c\	.	.	16ee\L	.	.	.	.	.	.	.	.	.	.	.	.	.	.	.	.
.	.	.	16cc\JJ	.	.	.	.	.	.	.	.	.	.	.	.	.	.	.	.
8d\	4	.	8b/L	.	.	8d\L	.	4d\	.	8g\L	.	8b\L	.	8g\L	.	8b\L	.	.	.
8D/J	3	.	8a/J	.	.	8D\J	.	.	.	8f#\J	.	8a\J	.	8d\J	.	8a\J	.	.	.
=188	=188	=188	=188	=188	=188	=188	=188	=188	=188	=188	=188	=188	=188	=188	=188	=188	=188	=188	=188
4G\	.	.	4b/	.	2ryy	4G\	-men	4d\	-men	4g\	-men	4b\	-men	4B/	.	4g\	.	2ryy	2ryy
4r	.	.	4r	.	.	4r	.	4r	.	4r	.	4r	.	4r	.	4r	.	.	.
!	!	!	!	!	!	!	!	!	!	!	!	!	!	!LO:LB:g=original	!	!	!	!	!
=189	=189	=189	=189	=189	=189	=189	=189	=189	=189	=189	=189	=189	=189	=189	=189	=189	=189	=189	=189
8r	.	.	8r	.	2ryy	8r	.	8r	.	8r	.	8r	.	8r	.	8r	.	2ryy	2ryy
*	*	*	*	*	*	*	*ij	*	*ij	*	*ij	*	*	*	*	*	*	*	*
8E\L	6 5	.	8b/L	.	.	8E\L	a-	(4e\	a-	(4g\	a-	8b\	a-	8g\L	.	8b\	.	.	.
8C\	.	.	8a/	.	.	8C\	.	.	.	.	.	4a\	.	8g\	.	4a\	.	.	.
8D\J	.	.	8a/J	.	.	8D\J	.	8d\)	.	8f#\)	.	.	.	8d\J	.	.	.	.	.
!LO:LB:g=original	!	!	!	!	!	!	!	!	!	!	!	!LO:LB:g=original	!	!	!	!	!	!	!
=190	=190	=190	=190	=190	=190	=190	=190	=190	=190	=190	=190	=190	=190	=190	=190	=190	=190	=190	=190
4GG/	.	.	4b/	.	2ryy	4G\	-men	4d\	-men	4g\	-men	4b\	-men	4B/	.	4g\	.	2ryy	2ryy
4r	.	.	4r	.	.	4r	.	4r	.	4r	.	4r	.	4r	.	4r	.	.	.
=191	=191	=191	=191	=191	=191	=191	=191	=191	=191	=191	=191	=191	=191	=191	=191	=191	=191	=191	=191
8r	.	.	8r	.	2ryy	8r	.	8r	.	8r	.	8r	.	8r	.	8r	.	2ryy	2ryy
8E\L	6 5	.	8b/L	.	.	8E\L	a-	(4e\	a-	(4g\	a-	8b\	a-	8g\L	.	8b\	.	.	.
8C\	.	.	8a/	.	.	8C\	.	.	.	.	.	4a\	.	8g\	.	4a\	.	.	.
8D\J	.	.	8a/J	.	.	8D\J	.	8d\)	.	8f#\)	.	.	.	8d\J	.	.	.	.	.
=192	=192	=192	=192	=192	=192	=192	=192	=192	=192	=192	=192	=192	=192	=192	=192	=192	=192	=192	=192
4GG/	.	.	4b\	.	2ryy	4G\	-men	4d\	-men	4g\	-men	4b\	-men	4B/	.	4g\	.	2ryy	2ryy
4r	.	.	4r	.	.	4r	.	4r	.	4r	.	4r	.	4r	.	4r	.	.	.
==	==	==	==	==	==	==	==	==	==	==	==	==	==	==	==	==	==	==	==
*-	*-	*-	*-	*-	*-	*-	*-	*-	*-	*-	*-	*-	*-	*-	*-	*-	*-	*-	*-
!!!system-decoration: [(g1)][(g2)][(g3)][(g4)]s11
!!!RDF**kern: > = above
!!!RDF**kern: < = below
!!!RDF**dynam: f = f:
!!!RDF**dynam: p = p:
!!!ENC: Andrzej Borzym
!!!END: 2020-07-17
!!!EED: Andrzej Borzym
!!!EEV: 2022-01-14
!!!YEC: Copyright 2022 Narodowy Instytut Fryderyka Chopina (https://polishscores.org)
!!!YEM: License CC-BY-4.0 (https://creativecommons.org/licenses/by/4.0)
